(File created: Monday December 08 2025 - 02:46 PM)
(for Carvera from Vectric)
(VECTRIC POST REVISION)
(AA6001CAC4E9696A3EC4F9B49CBCFB6D)
G90G54
G17
G21

T1M6
G0Z20.320
G0X0.000Y0.000
S10000M3
G0X0.000Y0.000
G0Z5.080
G1Z-0.977F300.0
G1Y88.900F1000.0
X63.500
Y0.000
X0.000
G1Z-1.954F300.0
G1Y88.900F1000.0
X63.500
Y0.000
X0.000
G1Z-2.931F300.0
G1Y88.900F1000.0
X63.500
Y0.000
X0.000
G1Z-3.908F300.0
G1Y88.900F1000.0
X63.500
Y0.000
X0.000
G1Z-4.885F300.0
G1Y88.900F1000.0
X63.500
Y0.000
X0.000
G1Z-5.862F300.0
G1Y88.900F1000.0
X63.500
Y0.000
X0.000
G1Z-6.838F300.0
G1Y88.900F1000.0
X63.500
Y0.000
X0.000
G1Z-7.815F300.0
G1Y88.900F1000.0
X63.500
Y0.000
X0.000
G1Z-8.792F300.0
G1Y88.900F1000.0
X63.500
Y0.000
X0.000
G1Z-9.769F300.0
G1Y88.900F1000.0
X63.500
Y0.000
X0.000
G1Z-10.746F300.0
G1Y88.900F1000.0
X63.500
Y0.000
X0.000
G1Z-11.723F300.0
G1Y88.900F1000.0
X63.500
Y0.000
X0.000
G1Z-12.700F300.0
G1Y88.900F1000.0
X63.500
Y0.000
X0.000
G0Z5.080
G0X9.928Y0.001Z5.080
G1Z-1.000F300.0
G1X0.040F1000.0
X0.004Y0.004
X0.000Y0.058
Y2.224
X9.417
X9.427Y2.254
X9.516Y2.437
X9.600Y2.603
X9.703Y2.758
X9.823Y2.900
X9.927Y3.057
X10.049Y3.200
X10.183Y3.397
X10.346Y3.571
X10.370Y3.623
X10.441Y3.954
X10.475Y4.183
X10.544Y4.407
X10.562Y4.446
X0.000
Y6.669
G0Z5.080
G0X63.460Y0.001
G1Z-1.000F300.0
G1X12.917F1000.0
X12.958Y0.043
X13.033Y0.118
X13.108Y0.193
X13.254Y0.349
X13.379Y0.526
X13.480Y0.721
X13.553Y0.927
X13.597Y1.140
X13.611Y1.353
Y1.431
X13.801Y1.569
X14.278
X14.459Y1.579
X14.638Y1.610
X14.812Y1.661
X15.018Y1.706
X15.219Y1.779
X15.410Y1.879
X15.584Y2.003
X15.738Y2.147
X15.813Y2.222
X15.815Y2.224
X63.500
Y4.446
X16.342
G0Z5.080
G0X0.000Y6.669
G1Z-1.000F300.0
G1X63.500F1000.0
Y8.891
X0.000
Y11.114
X63.500
Y13.336
X0.000
Y15.559
G0Z5.080
G0X63.500Y13.336
G1Z-1.000F300.0
G1X0.000F1000.0
Y15.559
X14.820
X14.852Y15.528
X15.030Y15.403
X15.224Y15.302
X15.431Y15.229
X15.644Y15.185
X15.856Y15.170
X16.232
X16.445Y15.185
X16.657Y15.229
X16.864Y15.302
X17.059Y15.403
X17.236Y15.528
X17.269Y15.559
X22.629
X22.515Y15.681
X22.391Y15.858
X22.291Y16.049
X22.202Y16.233
X22.137Y16.428
X22.097Y16.630
X22.084Y16.833
Y17.359
X22.103Y17.603
X22.145Y17.781
X20.990
G0Z5.080
G0X0.000Y15.559
G1Z-1.000F300.0
G1X14.820F1000.0
X14.697Y15.674
X14.622Y15.749
X14.546Y15.824
X14.399Y15.981
X14.275Y16.158
X14.175Y16.350
X14.100Y16.500
X14.007Y16.693
X13.941Y16.896
X13.873Y17.094
X13.832Y17.300
X13.818Y17.509
Y17.781
X0.000
Y20.004
X15.548
X15.591Y20.019
X15.798Y20.060
X16.007Y20.074
X16.533
X16.544Y20.074
X16.635Y20.125
X16.737Y20.334
X16.869Y20.527
X17.026Y20.698
X17.101Y20.773
X17.177Y20.848
X17.252Y20.923
X17.327Y20.999
X17.402Y21.074
X17.523Y21.190
X17.655Y21.292
X17.797Y21.381
X17.968Y21.500
X18.153Y21.595
X18.303Y21.670
X18.494Y21.762
X18.695Y21.828
X18.563Y22.011
X18.459Y22.211
X18.451Y22.226
X0.000
Y24.449
X18.053
X18.069Y24.498
X18.158Y24.681
X18.233Y24.831
X18.302Y24.970
X18.373Y25.182
X18.474Y25.384
X18.603Y25.569
X18.755Y25.733
X18.830Y25.808
X18.905Y25.883
X19.068Y26.035
X19.252Y26.163
X19.451Y26.263
X19.281Y26.420
X19.165Y26.540
X19.063Y26.671
X0.000
Y28.894
X18.658
X18.670Y28.931
X18.759Y29.115
X18.834Y29.265
X18.934Y29.456
X19.059Y29.633
X19.206Y29.791
X19.281Y29.866
X19.356Y29.941
X19.510Y30.085
X19.684Y30.209
X19.875Y30.309
X20.076Y30.382
X20.282Y30.427
X20.456Y30.478
X20.635Y30.509
X20.816Y30.519
X20.891
X21.100Y30.506
X21.306Y30.464
X21.504Y30.396
X21.698Y30.334
X21.884Y30.247
X22.057Y30.136
X22.213Y30.005
X22.405Y29.874
X22.577Y29.716
X22.652Y29.641
X22.727Y29.565
X22.872Y29.410
X22.998Y29.232
X23.099Y29.038
X23.150Y28.894
G0Z5.080
G0X63.500Y13.336
G1Z-1.000F300.0
G1Y15.559F1000.0
X30.126
X30.162Y15.660
X30.205Y15.870
X30.219Y16.082
Y17.284
X30.205Y17.495
X30.162Y17.706
X30.135Y17.781
X63.500
Y20.004
X21.429
X21.384Y20.139
X21.295Y20.323
X21.219Y20.473
X21.124Y20.658
X21.005Y20.829
X20.901Y20.993
X20.778Y21.144
X21.006Y21.212
X21.224Y21.314
X21.424Y21.449
X21.600Y21.610
X21.675Y21.685
X21.791Y21.806
X21.894Y21.938
X21.982Y22.080
X22.082Y22.226
X63.500
Y24.449
X22.382
X22.346Y24.621
X22.282Y24.807
X22.196Y24.982
X22.121Y25.132
X22.046Y25.282
X21.947Y25.474
X21.822Y25.650
X21.675Y25.808
X21.600Y25.883
X21.575Y25.909
X21.769Y25.982
X21.954Y26.081
X22.125Y26.203
X22.276Y26.345
X22.288Y26.356
X22.480Y26.487
X22.652Y26.645
X22.678Y26.671
X63.500
Y28.894
X23.150
G0Z5.080
G0X63.500Y31.116
G1Z-1.000F300.0
G1X24.333F1000.0
X24.326Y31.115
X24.122Y31.102
X23.897
X23.711Y31.116
X0.000
Y33.339
X21.408
Y33.516
X21.421Y33.720
X21.460Y33.921
X21.526Y34.117
X21.615Y34.300
X21.714Y34.491
X21.839Y34.668
X21.986Y34.826
X22.144Y34.973
X22.320Y35.098
X22.512Y35.197
X22.687Y35.283
X22.872Y35.346
X23.063Y35.387
X23.237Y35.438
X23.416Y35.469
X23.596Y35.479
X24.198
X24.409Y35.465
X24.619Y35.422
X24.823Y35.351
X25.014Y35.253
X25.188Y35.133
X25.362Y35.021
X25.522Y34.887
X25.664Y34.731
X25.784Y34.559
X25.879Y34.375
X25.954Y34.225
X26.043Y34.041
X26.108Y33.846
X26.148Y33.644
X26.161Y33.441
Y33.339
X63.500
G0Z5.080
G0Y35.561
G1Z-1.000F300.0
G1X0.000F1000.0
Y37.784
X63.500
Y40.006
X0.000
Y42.229
X63.500
Y44.451
X0.000
Y46.674
X63.500
Y48.896
X0.000
Y51.119
X63.500
Y53.341
X0.000
Y55.564
X63.500
Y57.786
X0.000
Y60.009
X63.500
Y62.231
X0.000
Y64.454
X63.500
Y66.676
X0.000
Y68.899
X63.500
Y71.121
X0.000
Y73.344
X63.500
Y75.566
X0.000
Y77.789
X63.500
Y80.011
X0.000
Y82.234
X63.500
Y84.456
X0.000
Y86.678
X63.500
Y88.842
X63.496Y88.896
X63.460Y88.899
X0.040
G0Z5.080
G0X0.000Y0.058
G1Z-1.000F300.0
G1X0.004Y0.004F1000.0
X0.058Y0.000
X9.929
X9.887Y0.043
X9.812Y0.118
G2X9.309Y1.278I1.084J1.159
G1Y1.653
G2X9.516Y2.437I1.588J0.000
G2X9.823Y2.900I1.455J-0.634
G1X10.049Y3.200
G2X10.346Y3.571I1.374J-0.796
G1X10.370Y3.623
X10.441Y3.954
G2X10.643Y4.617I1.583J-0.121
G2X11.014Y5.142I1.455J-0.634
G1X11.090Y5.217
X11.165Y5.293
X11.240Y5.368
G2X11.766Y5.739I1.159J-1.084
G1X11.916Y5.814
G2X12.700Y6.021I0.784J-1.380
G1X12.925
G2X13.539Y5.898I0.000J-1.588
G1X13.645Y5.867
X13.752Y5.871
X14.128
G2X14.625Y5.791I0.000J-1.588
G2X15.288Y5.589I-0.121J-1.583
G2X15.813Y5.217I-0.634J-1.455
G1X15.888Y5.142
G2X16.260Y4.617I-1.084J-1.159
G2X16.467Y3.833I-1.380J-0.784
G1Y3.607
G2X16.260Y2.823I-1.588J0.000
G2X15.888Y2.297I-1.455J0.634
G1X15.813Y2.222
X15.738Y2.147
G2X14.812Y1.661I-1.159J1.084
G2X14.278Y1.569I-0.533J1.495
G1X13.801
X13.611Y1.431
Y1.353
G2X13.108Y0.193I-1.588J0.000
G1X13.033Y0.118
X12.958Y0.043
X12.916Y0.000
X63.442
X63.496Y0.004
X63.500Y0.058
Y88.842
X63.496Y88.896
X63.442Y88.900
X0.058
X0.004Y88.896
X0.000Y88.842
Y0.058
G0Z5.080
G0X15.393Y19.951
G1Z-1.000F300.0
G2X16.007Y20.074I0.613J-1.464F1000.0
G1X16.533
X16.544Y20.074
X16.635Y20.125
G2X17.026Y20.698I1.475J-0.586
G1X17.101Y20.773
X17.177Y20.848
X17.252Y20.923
X17.327Y20.999
X17.402Y21.074
G2X17.797Y21.381I1.159J-1.084
G1X18.153Y21.595
X18.303Y21.670
X18.695Y21.828
G2X18.459Y22.211I1.219J1.017
G1X18.384Y22.361
X18.308Y22.512
X18.298Y22.531
G2X17.951Y23.521I1.241J0.990
G1Y23.897
G2X18.158Y24.681I1.588J0.000
G1X18.233Y24.831
X18.302Y24.970
G2X18.755Y25.733I1.537J-0.397
G1X18.830Y25.808
X18.905Y25.883
G2X19.451Y26.263I1.159J-1.084
G1X19.281Y26.420
G2X18.974Y26.815I1.084J1.159
G1X18.759Y27.171
G2X18.552Y27.955I1.380J0.784
G1Y28.331
G2X18.759Y29.115I1.588J0.000
G1X18.834Y29.265
G2X19.206Y29.791I1.455J-0.634
G1X19.281Y29.866
X19.356Y29.941
G2X20.282Y30.427I1.159J-1.084
G2X20.816Y30.519I0.533J-1.495
G1X20.891
G2X21.504Y30.396I0.000J-1.588
G2X22.213Y30.005I-0.388J-1.539
G2X22.577Y29.716I-0.796J-1.374
G1X22.652Y29.641
X22.727Y29.565
G2X23.230Y28.406I-1.084J-1.159
G1Y27.880
G2X22.727Y26.720I-1.588J0.000
G1X22.652Y26.645
G2X22.288Y26.356I-1.159J1.084
G1X22.276Y26.345
G2X21.575Y25.909I-1.159J1.084
G1X21.600Y25.883
X21.675Y25.808
G2X22.046Y25.282I-1.084J-1.159
G1X22.121Y25.132
X22.196Y24.982
G2X22.386Y24.431I-1.380J-0.784
G2X22.479Y23.897I-1.495J-0.533
G1Y23.521
G2X22.355Y22.908I-1.588J0.000
G1X22.280Y22.683
G2X21.982Y22.080I-1.539J0.388
G2X21.675Y21.685I-1.391J0.765
G1X21.600Y21.610
G2X20.778Y21.144I-1.159J1.084
G1X21.005Y20.829
X21.219Y20.473
X21.295Y20.323
G2X21.502Y19.538I-1.380J-0.784
G1Y19.012
G2X21.155Y18.022I-1.588J0.000
G2X20.848Y17.628I-1.391J0.765
G1X20.773Y17.552
G2X20.247Y17.181I-1.159J1.084
G1X20.097Y17.106
G2X19.313Y16.899I-0.784J1.380
G1X19.088
X18.647Y16.961
X18.467Y16.852
X18.207Y16.489
G2X17.917Y16.125I-1.374J0.796
G1X17.803Y16.014
G2X17.403Y15.685I-1.195J1.045
G1X17.391Y15.674
G2X16.232Y15.170I-1.159J1.084
G1X15.856
G2X14.697Y15.674I0.000J1.588
G1X14.622Y15.749
X14.546Y15.824
G2X14.175Y16.350I1.084J1.159
G1X14.100Y16.500
X13.941Y16.896
G2X13.818Y17.509I1.464J0.613
G1Y17.960
G2X14.025Y18.744I1.588J0.000
G2X14.396Y19.270I1.455J-0.634
G1X14.471Y19.345
X14.546Y19.420
X14.622Y19.496
G2X15.393Y19.951I1.159J-1.084
G0Z5.080
G0X25.217Y13.800
G1Z-1.000F300.0
G1X24.861Y14.014F1000.0
G2X24.466Y14.321I0.765J1.391
G1X24.391Y14.396
X24.316Y14.471
X24.241Y14.546
X24.229Y14.558
X24.098Y14.642
X23.960Y14.693
X23.564Y14.852
G2X23.102Y15.159I0.634J1.455
G2X22.738Y15.448I0.796J1.374
G1X22.662Y15.523
G2X22.291Y16.049I1.084J1.159
G2X22.084Y16.833I1.380J0.784
G1Y17.359
G2X22.159Y17.842I1.588J0.000
G1Y17.885
G2X22.366Y18.669I1.588J0.000
G2X22.738Y19.195I1.455J-0.634
G1X22.813Y19.270
X22.888Y19.345
G2X23.414Y19.716I1.159J-1.084
G1X23.564Y19.792
G2X24.348Y19.999I0.784J-1.380
G1X24.874
G2X25.358Y19.923I0.000J-1.588
G2X25.858Y19.831I-0.033J-1.587
G1X26.039Y19.794
X26.452Y19.848
X27.504
G2X28.288Y19.641I0.000J-1.588
G1X28.439Y19.566
X28.589Y19.491
X28.945Y19.276
G2X29.554Y18.681I-0.765J-1.391
G1X29.565Y18.669
G2X29.872Y18.274I-1.084J-1.159
G2X30.219Y17.284I-1.241J-0.990
G1Y16.082
G2X29.872Y15.092I-1.588J0.000
G2X29.277Y14.482I-1.391J0.765
G1X29.265Y14.471
G2X28.739Y14.100I-1.159J1.084
G2X28.076Y13.898I-0.784J1.380
G1X27.812Y13.835
G2X27.279Y13.743I-0.533J1.495
G1X27.160
X26.910Y13.685
G2X26.377Y13.592I-0.533J1.495
G1X26.001
G2X25.217Y13.800I0.000J1.588
G0Z5.080
G0X25.954Y32.431
G1Z-1.000F300.0
G1X25.879Y32.281F1000.0
G2X25.507Y31.755I-1.455J0.634
G1X25.432Y31.680
G2X24.907Y31.309I-1.159J1.084
G2X24.122Y31.102I-0.784J1.380
G1X23.897
G2X23.413Y31.177I0.000J1.588
G2X22.833Y31.300I0.033J1.587
G2X22.061Y31.755I0.388J1.539
G1X21.986Y31.830
G2X21.615Y32.356I1.084J1.159
G2X21.408Y33.140I1.380J0.784
G1Y33.516
G2X21.615Y34.300I1.588J0.000
G2X21.986Y34.826I1.455J-0.634
G2X22.512Y35.197I1.159J-1.084
G2X23.063Y35.387I0.784J-1.380
G2X23.596Y35.479I0.533J-1.495
G1X24.198
G2X25.188Y35.133I0.000J-1.587
G2X25.879Y34.375I-0.765J-1.391
G1X25.954Y34.225
G2X26.161Y33.441I-1.380J-0.784
G1Y33.215
G2X25.954Y32.431I-1.588J0.000
G0Z5.080
G0X9.009Y0.001
G1Z-2.000F300.0
G1X0.040F1000.0
X0.004Y0.004
X0.000Y0.058
Y2.224
X8.665
X8.675Y2.254
X8.765Y2.437
X8.860Y2.623
X8.979Y2.794
X9.090Y2.967
X9.222Y3.125
X9.325Y3.280
X9.445Y3.423
X9.539Y3.603
X9.656Y3.771
X9.666Y3.790
X9.742Y3.940
X9.810Y4.079
X9.919Y4.375
X9.934Y4.446
X0.000
Y6.669
X7.400
X7.335Y6.738
X7.211Y6.915
X7.111Y7.106
X7.022Y7.290
X6.957Y7.485
X6.917Y7.687
X6.904Y7.891
Y8.417
X6.919Y8.629
X6.962Y8.842
X6.980Y8.891
X0.000
Y11.114
G0Z5.080
G0X13.332Y6.669
G1Z-2.000F300.0
G1X13.614F1000.0
X13.783Y6.784
X13.795Y6.796
X13.910Y6.906
X13.954Y6.955
X14.025Y7.097
X14.121Y7.282
X14.240Y7.453
X14.328Y7.596
X14.432Y7.729
X14.550Y7.851
X14.499Y8.145
X14.455Y8.307
X14.428Y8.474
X14.419Y8.642
Y8.891
X11.192
G0Z5.080
G0X0.000Y11.114
G1Z-2.000F300.0
G1X14.419F1000.0
Y11.347
X14.438Y11.592
X14.494Y11.831
X14.507Y12.001
X14.538Y12.169
X14.586Y12.332
X14.603Y12.423
X14.545Y12.604
X14.457Y12.787
X14.394Y12.979
X14.326Y13.118
X14.239Y13.294
X14.225Y13.336
X0.000
Y15.559
X13.672
X13.668Y15.631
Y15.749
X13.643Y15.835
X13.554Y16.022
X13.490Y16.220
X13.433Y16.379
X13.393Y16.544
X13.372Y16.712
X13.327Y16.874
X13.301Y17.041
X13.292Y17.209
Y17.252
X13.236Y17.491
X13.217Y17.735
Y17.781
X0.000
Y20.004
X14.531
X14.592Y20.062
X14.724Y20.165
X14.866Y20.253
X15.037Y20.372
X15.222Y20.468
X15.373Y20.543
X15.523Y20.618
X15.733Y20.718
X15.956Y20.786
X16.186Y20.821
X16.450Y20.883
X16.464Y20.888
X16.500Y20.923
X16.575Y20.999
X16.651Y21.074
X16.822Y21.232
X17.015Y21.363
X17.026Y21.374
X17.101Y21.449
X17.177Y21.525
X17.188Y21.536
X17.319Y21.729
X17.477Y21.900
X17.503Y21.927
X17.500Y22.018
Y22.226
X0.000
Y24.449
X17.049
Y24.649
X17.062Y24.852
X17.102Y25.054
X17.167Y25.249
X17.256Y25.433
X17.356Y25.624
X17.480Y25.801
X17.628Y25.958
X17.703Y26.033
X17.860Y26.180
X18.037Y26.305
X18.228Y26.405
X18.248Y26.415
X18.512Y26.586
X18.454Y26.645
X18.430Y26.671
X0.000
Y28.894
X17.981
X17.994Y28.931
X18.083Y29.115
X18.158Y29.265
X18.233Y29.415
X18.308Y29.566
X18.384Y29.716
X18.479Y29.901
X18.598Y30.072
X18.686Y30.214
X18.789Y30.347
X18.905Y30.467
X19.076Y30.625
X19.269Y30.757
X19.281Y30.768
X19.356Y30.843
X19.514Y30.991
X19.693Y31.116
X0.000
Y33.339
X20.772
X20.853Y33.454
X20.907Y33.546
X20.966Y33.683
X21.032Y33.999
Y34.267
X21.046Y34.480
X21.090Y34.693
X21.163Y34.899
X21.264Y35.094
X21.390Y35.271
X21.535Y35.427
X21.610Y35.502
X21.670Y35.561
X0.000
Y37.784
X25.085
X25.147Y37.907
X25.242Y38.092
X25.361Y38.263
X25.450Y38.406
X25.552Y38.538
X25.668Y38.658
X25.743Y38.733
X25.819Y38.809
X25.974Y38.954
X26.152Y39.080
X26.346Y39.181
X26.553Y39.254
X26.765Y39.297
X26.978Y39.312
X27.955
X28.159Y39.299
X28.361Y39.259
X28.556Y39.194
X28.739Y39.105
X28.930Y39.005
X29.107Y38.880
X29.265Y38.733
X29.340Y38.658
X29.415Y38.583
X29.490Y38.508
X29.637Y38.350
X29.762Y38.174
X29.861Y37.982
X29.951Y37.799
X29.956Y37.784
G0Z5.080
G0X21.990Y20.004
G1Z-2.000F300.0
G1X22.772F1000.0
G0Z5.080
G0X63.460Y0.001
G1Z-2.000F300.0
G1X15.941F1000.0
Y0.225
X15.928Y0.429
X15.888Y0.631
X15.823Y0.826
X15.734Y1.010
X15.612Y1.236
X15.757Y1.345
X15.888Y1.471
X15.964Y1.546
X16.039Y1.621
X16.114Y1.696
X16.189Y1.771
X16.264Y1.846
X16.339Y1.922
X16.351Y1.933
X16.529Y2.052
X16.691Y2.197
X16.714Y2.224
X63.500
Y4.446
X18.281
X18.297Y4.497
X18.365Y4.695
X18.407Y4.901
X18.421Y5.110
Y5.411
X18.412Y5.579
X18.385Y5.745
X18.341Y5.908
X18.311Y6.117
X18.253Y6.320
X18.200Y6.554
X18.155Y6.669
X19.356
G0Z5.080
G0X19.454Y8.891
G1Z-2.000F300.0
G1X19.322F1000.0
Y9.093
X19.309Y9.302
X19.267Y9.508
X19.199Y9.706
X19.133Y9.910
X19.040Y10.102
X18.965Y10.253
X18.890Y10.403
X18.782Y10.608
X18.646Y10.795
X18.646Y10.821
Y11.114
G0Z5.080
G0X24.645Y6.669
G1Z-2.000F300.0
G1X25.017F1000.0
X25.099Y6.610
X25.294Y6.509
X25.501Y6.436
X25.713Y6.392
X25.926Y6.378
X26.302
X26.517Y6.393
X26.731Y6.437
X26.937Y6.511
X27.128Y6.610
X27.321Y6.510
X27.514Y6.417
X27.717Y6.351
X27.904Y6.286
X28.098Y6.245
X28.272Y6.194
X28.451Y6.163
X28.631Y6.153
X29.082
X29.250Y6.162
X29.417Y6.188
X29.579Y6.233
X29.809Y6.267
X30.032Y6.335
X30.242Y6.435
X30.450Y6.545
X30.619Y6.669
X63.500
Y8.891
X31.141
X31.064Y9.050
X30.954Y9.258
X30.813Y9.451
X30.643Y9.621
X30.450Y9.763
X30.242Y9.872
X30.032Y9.972
X29.809Y10.040
X29.579Y10.075
X29.417Y10.119
X29.250Y10.145
X29.082Y10.154
X28.631
X28.451Y10.144
X28.272Y10.113
X28.098Y10.062
X27.904Y10.021
X27.717Y9.956
X27.514Y9.890
X27.321Y9.797
X27.128Y9.697
X26.937Y9.796
X26.731Y9.870
X26.517Y9.914
X26.302Y9.929
X25.926
X25.713Y9.915
X25.501Y9.871
X25.294Y9.798
X25.099Y9.697
X24.922Y9.571
X24.767Y9.426
X24.613Y9.260
X24.484Y9.073
X24.393Y8.891
X24.075
G0Z5.080
G0X18.646Y11.114
G1Z-2.000F300.0
G1X63.500F1000.0
Y13.336
X28.392
X28.445Y13.347
X28.644Y13.415
X28.869Y13.490
X29.072Y13.556
X29.265Y13.649
X29.456Y13.748
X29.633Y13.873
X29.791Y14.020
X29.866Y14.096
X29.941Y14.171
X30.016Y14.246
X30.163Y14.403
X30.288Y14.580
X30.387Y14.772
X30.398Y14.791
X30.517Y14.962
X30.613Y15.147
X30.688Y15.298
X30.777Y15.481
X30.803Y15.559
X63.500
Y17.781
X30.830
X30.763Y17.918
X30.688Y18.068
X30.613Y18.218
X30.538Y18.369
X30.442Y18.554
X30.323Y18.725
X30.312Y18.744
X30.213Y18.936
X30.088Y19.113
X29.941Y19.270
X29.866Y19.345
X29.791Y19.420
X29.633Y19.567
X29.456Y19.692
X29.265Y19.792
X29.115Y19.867
X28.965Y19.942
X28.841Y20.004
X63.500
G0Z5.080
G0X21.990
G1Z-2.000F300.0
G1X21.935Y20.222F1000.0
X21.894Y20.416
X21.829Y20.603
X21.805Y20.688
X21.929Y20.832
X22.035Y20.990
X22.121Y21.159
X22.132Y21.179
X22.258Y21.361
X22.358Y21.561
X22.428Y21.772
X22.497Y21.911
X22.631Y22.219
X22.636Y22.226
X63.500
Y24.449
X25.546
X25.575Y24.469
X25.733Y24.616
X25.808Y24.691
X25.954Y24.847
X26.079Y25.024
X26.180Y25.219
X26.253Y25.426
X26.297Y25.638
X26.311Y25.851
Y26.076
X26.297Y26.289
X26.253Y26.502
X26.193Y26.671
X63.500
Y28.894
X24.621
X24.537Y29.020
X24.526Y29.040
X24.427Y29.231
X24.302Y29.408
X24.155Y29.565
X24.080Y29.641
X24.004Y29.716
X23.885Y29.831
X23.753Y29.934
X23.611Y30.022
X23.629Y30.031
X23.802Y30.120
X24.090Y29.956
X24.273Y29.867
X24.468Y29.802
X24.670Y29.762
X24.874Y29.749
X24.993
X25.231Y29.693
X25.475Y29.674
X25.628
X25.914Y29.572
X26.112Y29.504
X26.318Y29.462
X26.527Y29.449
X26.753
X26.962Y29.462
X27.168Y29.504
X27.366Y29.572
X27.580Y29.642
X27.783Y29.743
X27.968Y29.870
X27.988Y29.881
X28.179Y29.980
X28.356Y30.105
X28.513Y30.252
X28.588Y30.328
X28.664Y30.403
X28.739Y30.478
X28.883Y30.632
X29.007Y30.806
X29.107Y30.997
X29.150Y31.116
X63.500
Y33.339
X29.206
X29.186Y33.396
X29.085Y33.591
X28.959Y33.768
X28.814Y33.924
X28.739Y33.999
X28.664Y34.074
X28.588Y34.149
X28.458Y34.274
X28.314Y34.383
X28.159Y34.475
X28.342Y34.573
X28.512Y34.694
X28.664Y34.836
X28.739Y34.912
X28.814Y34.987
X28.889Y35.062
X28.901Y35.073
X29.093Y35.204
X29.265Y35.362
X29.340Y35.438
X29.415Y35.513
X29.464Y35.561
X63.500
Y37.784
X29.956
G0Z5.080
G0X63.500Y40.006
G1Z-2.000F300.0
G1X0.000F1000.0
Y42.229
X63.500
Y44.451
X0.000
Y46.674
X63.500
Y48.896
X0.000
Y51.119
X63.500
Y53.341
X0.000
Y55.564
X63.500
Y57.786
X0.000
Y60.009
X63.500
Y62.231
X0.000
Y64.454
X63.500
Y66.676
X0.000
Y68.899
X63.500
Y71.121
X0.000
Y73.344
X63.500
Y75.566
X0.000
Y77.789
X63.500
Y80.011
X0.000
Y82.234
X63.500
Y84.456
X0.000
Y86.678
X63.500
Y88.842
X63.496Y88.896
X63.460Y88.899
X0.040
G0Z5.080
G0X25.020Y13.336
G1Z-2.000F300.0
G1X18.756F1000.0
G0Z5.080
G0X9.009Y0.000
G1Z-2.000F300.0
G1X8.990Y0.043F1000.0
X8.915Y0.193
X8.840Y0.343
X8.765Y0.493
G2X8.557Y1.278I1.380J0.784
G1Y1.653
G2X8.765Y2.437I1.588J0.000
G1X8.979Y2.794
X9.222Y3.125
X9.445Y3.423
X9.656Y3.771
X9.666Y3.790
X9.742Y3.940
X9.810Y4.079
X9.919Y4.375
X9.986Y4.692
G2X10.155Y5.374I1.587J-0.033
G1X9.769Y5.326
X9.393
G2X8.234Y5.829I0.000J1.588
G1X8.159Y5.904
X8.084Y5.980
X8.009Y6.055
X7.933Y6.130
X7.858Y6.205
X7.783Y6.280
X7.708Y6.355
X7.633Y6.430
X7.558Y6.506
X7.483Y6.581
G2X7.111Y7.106I1.084J1.159
G2X6.904Y7.891I1.380J0.784
G1Y8.417
G2X7.407Y9.576I1.588J0.000
G1X7.483Y9.651
X7.558Y9.726
X7.633Y9.801
G2X8.158Y10.173I1.159J-1.084
G2X8.943Y10.380I0.784J-1.380
G1X9.168
G2X9.952Y10.173I0.000J-1.588
G2X10.478Y9.801I-0.634J-1.455
G1X10.553Y9.726
X10.628Y9.651
X10.703Y9.576
X10.778Y9.501
G2X11.150Y8.975I-1.084J-1.159
G1X11.225Y8.825
X11.236Y8.805
X11.450Y8.449
G2X11.657Y7.665I-1.380J-0.784
G1Y7.214
G2X11.574Y6.708I-1.588J0.000
G2X12.024Y6.773I0.449J-1.523
G1X12.775
G2X13.388Y6.649I0.000J-1.588
G1X13.519Y6.611
X13.589Y6.652
X13.783Y6.784
X13.795Y6.796
X13.910Y6.906
X13.954Y6.955
X14.025Y7.097
X14.240Y7.453
G2X14.550Y7.851I1.391J-0.765
G1X14.499Y8.145
G2X14.419Y8.642I1.508J0.497
G1Y9.844
G2X14.522Y10.408I1.588J0.000
G2X14.419Y10.972I1.484J0.564
G1Y11.347
G2X14.494Y11.831I1.588J0.000
G2X14.586Y12.332I1.587J-0.033
G1X14.603Y12.423
X14.545Y12.604
X14.394Y12.979
X14.326Y13.118
G2X14.119Y13.870I1.380J0.784
G1X14.060Y14.120
X14.019Y14.257
G2X13.822Y14.908I1.387J0.773
G1X13.791Y15.017
G2X13.668Y15.631I1.464J0.613
G1Y15.749
X13.643Y15.835
X13.490Y16.220
G2X13.372Y16.712I1.464J0.613
G2X13.292Y17.209I1.508J0.497
G1Y17.252
G2X13.217Y17.735I1.512J0.483
G1Y17.810
G2X13.340Y18.423I1.588J0.000
G1X13.499Y18.820
G2X13.870Y19.345I1.455J-0.634
G1X13.945Y19.420
X14.020Y19.496
X14.096Y19.571
X14.171Y19.646
X14.246Y19.721
X14.321Y19.796
X14.396Y19.871
X14.471Y19.946
G2X14.866Y20.253I1.159J-1.084
G1X15.222Y20.468
X15.373Y20.543
X15.523Y20.618
G2X16.186Y20.821I0.784J-1.380
G1X16.450Y20.883
X16.464Y20.888
X16.500Y20.923
X16.575Y20.999
X16.651Y21.074
G2X17.015Y21.363I1.159J-1.084
G1X17.026Y21.374
X17.101Y21.449
X17.177Y21.525
X17.188Y21.536
G2X17.477Y21.900I1.374J-0.796
G1X17.503Y21.927
X17.500Y22.018
Y22.437
X17.442Y22.687
X17.354Y23.100
X17.323Y23.209
X17.248Y23.434
X17.172Y23.659
G2X17.049Y24.273I1.464J0.613
G1Y24.649
G2X17.256Y25.433I1.588J0.000
G2X17.628Y25.958I1.455J-0.634
G1X17.703Y26.033
G2X18.228Y26.405I1.159J-1.084
G1X18.248Y26.415
X18.512Y26.586
X18.454Y26.645
G2X18.083Y27.171I1.084J1.159
G2X17.876Y27.955I1.380J0.784
G1Y28.331
G2X18.083Y29.115I1.588J0.000
G1X18.158Y29.265
X18.233Y29.415
X18.308Y29.566
X18.384Y29.716
X18.598Y30.072
G2X18.905Y30.467I1.391J-0.765
G2X19.269Y30.757I1.159J-1.084
G1X19.281Y30.768
X19.356Y30.843
G2X20.310Y31.333I1.159J-1.084
G1X20.281Y31.637
Y32.013
G2X20.488Y32.797I1.588J0.000
G1X20.563Y32.947
X20.638Y33.098
X20.853Y33.454
X20.907Y33.546
X20.966Y33.683
X21.032Y33.999
Y34.267
G2X21.535Y35.427I1.588J0.000
G1X21.610Y35.502
X21.685Y35.577
G2X22.080Y35.884I1.159J-1.084
G1X22.437Y36.099
G2X23.221Y36.306I0.784J-1.380
G1X23.521
G2X24.055Y36.214I0.000J-1.587
G1X24.316Y36.152
X24.423Y36.156
X24.573
X24.639Y36.154
Y36.522
G2X24.846Y37.306I1.588J0.000
G1X24.921Y37.456
X24.997Y37.607
X25.072Y37.757
X25.147Y37.907
X25.361Y38.263
G2X25.668Y38.658I1.391J-0.765
G1X25.743Y38.733
X25.819Y38.809
G2X26.978Y39.312I1.159J-1.084
G1X27.955
G2X28.739Y39.105I0.000J-1.588
G2X29.265Y38.733I-0.634J-1.455
G1X29.340Y38.658
X29.415Y38.583
X29.490Y38.508
G2X29.861Y37.982I-1.084J-1.159
G2X30.069Y37.198I-1.380J-0.784
G1Y36.822
G2X29.565Y35.663I-1.588J0.000
G1X29.490Y35.588
X29.415Y35.513
X29.340Y35.438
X29.265Y35.362
G2X28.901Y35.073I-1.159J1.084
G1X28.889Y35.062
X28.814Y34.987
X28.739Y34.912
X28.664Y34.836
G2X28.159Y34.475I-1.159J1.084
G2X28.588Y34.149I-0.730J-1.410
G1X28.664Y34.074
X28.739Y33.999
X28.814Y33.924
G2X29.317Y32.764I-1.084J-1.159
G1Y31.938
G2X29.225Y31.404I-1.588J0.000
G2X28.739Y30.478I-1.570J0.233
G1X28.664Y30.403
X28.588Y30.328
X28.513Y30.252
G2X27.988Y29.881I-1.159J1.084
G1X27.968Y29.870
G2X27.366Y29.572I-0.990J1.241
G2X26.753Y29.449I-0.613J1.464
G1X26.527
G2X25.914Y29.572I0.000J1.588
G1X25.628Y29.674
X25.475
G2X24.993Y29.749I0.000J1.588
G1X24.874
G2X24.090Y29.956I0.000J1.588
G1X23.802Y30.120
X23.629Y30.031
X23.611Y30.022
G2X24.004Y29.716I-0.766J-1.390
G1X24.080Y29.641
X24.155Y29.565
G2X24.526Y29.040I-1.084J-1.159
G1X24.537Y29.020
X24.687Y28.795
X24.837Y28.569
G2X25.134Y27.976I-1.241J-0.990
G1X25.202Y27.837
X25.283Y27.674
X25.319Y27.628
G2X25.733Y27.311I-0.745J-1.402
G1X25.808Y27.236
G2X26.311Y26.076I-1.084J-1.159
G1Y25.851
G2X25.808Y24.691I-1.588J0.000
G1X25.733Y24.616
G2X25.207Y24.245I-1.159J1.084
G1X24.811Y24.086
G2X24.319Y23.967I-0.613J1.464
G2X23.855Y23.888I-0.497J1.508
G1X23.492Y23.817
X23.280Y23.763
X23.182Y23.434
X23.107Y23.209
X23.032Y22.983
G2X22.733Y22.381I-1.539J0.388
G1X22.631Y22.219
X22.497Y21.911
X22.428Y21.772
G2X22.132Y21.179I-1.537J0.397
G1X22.121Y21.159
G2X21.805Y20.688I-1.455J0.634
G1X21.829Y20.603
X21.935Y20.222
X22.011Y19.922
X22.052Y19.788
X22.307Y19.875
X22.687Y19.982
X22.950Y20.051
X23.038Y20.092
X23.434Y20.251
X23.650Y20.324
G2X24.423Y20.525I0.773J-1.387
G1X24.649
G2X25.145Y20.445I0.000J-1.588
G1X25.558Y20.357
X25.858Y20.282
X25.926Y20.271
X26.227Y20.299
X26.270
G2X26.753Y20.374I0.483J-1.512
G1X27.429
G2X27.962Y20.282I0.000J-1.588
G1X28.263Y20.207
G2X28.814Y20.017I-0.233J-1.570
G1X28.965Y19.942
X29.115Y19.867
X29.265Y19.792
G2X29.791Y19.420I-0.634J-1.455
G1X29.866Y19.345
X29.941Y19.270
G2X30.312Y18.744I-1.084J-1.159
G1X30.323Y18.725
X30.538Y18.369
X30.613Y18.218
X30.688Y18.068
X30.763Y17.918
G2X30.970Y17.134I-1.380J-0.784
G1Y16.608
G2X30.895Y16.125I-1.587J0.000
G1Y16.082
G2X30.688Y15.298I-1.588J0.000
G1X30.613Y15.147
X30.398Y14.791
X30.387Y14.772
G2X30.016Y14.246I-1.455J0.634
G1X29.941Y14.171
X29.866Y14.096
X29.791Y14.020
G2X29.265Y13.649I-1.159J1.084
G1X28.869Y13.490
X28.644Y13.415
G2X28.030Y13.292I-0.613J1.464
G1X27.761
G2X27.279Y13.217I-0.483J1.512
G1X27.160
X27.065Y13.190
G2X26.452Y13.066I-0.613J1.464
G1X25.926
G2X25.142Y13.274I0.000J1.588
G1X24.786Y13.488
X24.454Y13.731
G2X24.090Y14.020I0.796J1.374
G1X24.015Y14.096
X23.940Y14.171
X23.931Y14.179
X23.789Y14.250
X23.639Y14.326
X23.489Y14.401
X23.338Y14.476
X22.982Y14.690
X22.757Y14.841
X22.504Y15.013
G2X22.051Y14.246I-1.538J0.392
G2X20.891Y13.743I-1.159J1.084
G1X20.666
G2X20.182Y13.818I0.000J1.588
G2X19.601Y13.941I0.033J1.587
G1X19.205Y14.100
X18.993Y14.213
X18.871Y14.236
X18.872Y14.203
Y13.978
G2X18.779Y13.444I-1.588J0.000
G1X18.673Y13.064
X18.598Y12.838
X18.501Y12.564
X18.571Y12.132
G2X18.646Y11.648I-1.512J-0.484
G1Y10.821
X18.646Y10.795
G2X18.890Y10.403I-1.212J-1.026
G1X18.965Y10.253
X19.040Y10.102
X19.199Y9.706
G2X19.322Y9.093I-1.464J-0.613
G1Y8.717
X19.322Y8.678
G2X19.656Y9.125I1.419J-0.712
G1X19.732Y9.200
G2X20.891Y9.703I1.159J-1.084
G1X21.010
G2X21.492Y9.779I0.483J-1.512
G1X21.718
G2X22.331Y9.655I0.000J-1.588
G1X22.557Y9.580
X22.782Y9.505
X23.007Y9.430
X23.404Y9.271
X23.554Y9.196
X23.704Y9.121
G2X24.312Y8.655I-0.634J-1.455
G2X24.767Y9.426I1.539J-0.389
G2X25.926Y9.929I1.159J-1.084
G1X26.302
G2X27.128Y9.697I0.000J-1.588
G1X27.321Y9.797
X27.717Y9.956
X28.098Y10.062
G2X28.631Y10.154I0.533J-1.495
G1X29.082
G2X29.579Y10.075I0.000J-1.588
G2X30.242Y9.872I-0.121J-1.583
G2X31.064Y9.050I-0.634J-1.455
G2X31.271Y8.266I-1.380J-0.784
G1Y8.041
G2X31.064Y7.257I-1.588J0.000
G2X30.242Y6.435I-1.455J0.634
G2X29.579Y6.233I-0.784J1.380
G2X29.082Y6.153I-0.497J1.508
G1X28.631
G2X28.098Y6.245I0.000J1.588
G1X27.717Y6.351
X27.321Y6.510
X27.128Y6.610
G2X26.302Y6.378I-0.827J1.355
G1X25.926
G2X24.767Y6.881I0.000J1.588
G1X24.741Y6.906
G2X24.462Y6.374I-1.520J0.458
G2X23.704Y5.684I-1.391J0.765
G1X23.554Y5.608
X23.404Y5.533
G2X22.852Y5.343I-0.784J1.380
G1X22.552Y5.268
G2X22.018Y5.176I-0.533J1.495
G1X21.718
G2X21.184Y5.268I0.000J1.588
G1X20.884Y5.343
G2X19.957Y5.829I0.233J1.570
G1X19.882Y5.904
X19.807Y5.980
G2X19.436Y6.505I1.084J1.159
G2X19.246Y7.056I1.380J0.784
G2X19.153Y7.590I1.495J0.533
G1Y7.966
X19.154Y8.005
X19.115Y7.933
G2X18.744Y7.407I-1.455J0.634
G1X18.669Y7.332
X18.594Y7.257
X18.519Y7.182
X18.444Y7.107
X18.368Y7.032
X18.293Y6.956
X18.218Y6.881
X18.112Y6.778
G2X18.253Y6.320I-1.429J-0.691
G1X18.341Y5.908
G2X18.421Y5.411I-1.508J-0.497
G1Y5.110
G2X18.297Y4.497I-1.588J0.000
G2X17.842Y3.725I-1.539J0.388
G1X17.767Y3.650
X17.756Y3.638
G2X17.301Y3.139I-1.374J0.796
G1X17.247Y3.068
X17.237Y3.048
X17.161Y2.898
X16.947Y2.542
G2X16.351Y1.933I-1.391J0.765
G1X16.339Y1.922
X16.264Y1.846
X16.189Y1.771
X16.114Y1.696
X16.039Y1.621
X15.964Y1.546
X15.888Y1.471
X15.612Y1.236
X15.734Y1.010
G2X15.941Y0.225I-1.380J-0.784
G1Y0.000
X63.442
X63.496Y0.004
X63.500Y0.058
Y88.842
X63.496Y88.896
X63.442Y88.900
X0.058
X0.004Y88.896
X0.000Y88.842
Y0.058
X0.004Y0.004
X0.058Y0.000
X9.009
G0Z5.080
G0X8.300Y0.001
G1Z-3.000F300.0
G1X0.040F1000.0
X0.004Y0.004
X0.000Y0.058
Y2.224
X7.989
X7.999Y2.254
X8.088Y2.437
X8.184Y2.623
X8.303Y2.794
X8.414Y2.967
X8.546Y3.125
X8.650Y3.282
X8.771Y3.426
X8.875Y3.583
X8.997Y3.726
X9.100Y3.883
X9.222Y4.027
X9.355Y4.221
X9.366Y4.241
X9.405Y4.325
X9.395Y4.446
X0.000
Y6.669
X6.721
X6.622Y6.786
X6.519Y6.941
X6.435Y7.106
X6.360Y7.257
X6.271Y7.440
X6.205Y7.635
X6.166Y7.837
X6.153Y8.041
Y8.341
X6.172Y8.586
X6.228Y8.824
Y8.891
X0.000
Y11.114
X7.743
X7.841Y11.148
X8.054Y11.192
X8.266Y11.206
X9.168
X9.372Y11.193
X9.574Y11.154
X9.693Y11.114
G0Z5.080
G0X11.882Y8.891
G1Z-3.000F300.0
G1X13.931F1000.0
X13.968Y9.050
Y11.114
X9.693
G0Z5.080
G0X13.607Y13.336
G1Z-3.000F300.0
G1X0.000F1000.0
Y15.559
X13.194
X13.159Y15.698
X13.114Y15.844
X13.039Y16.070
X12.964Y16.295
X12.907Y16.454
X12.867Y16.619
X12.846Y16.787
X12.797Y16.973
X12.770Y17.163
X12.726Y17.325
X12.700Y17.492
X12.691Y17.660
Y17.781
X0.000
Y20.004
X13.852
X13.870Y20.022
X13.945Y20.097
X14.020Y20.172
X14.178Y20.319
X14.355Y20.444
X14.546Y20.543
X14.696Y20.618
X14.716Y20.629
X14.899Y20.755
X15.098Y20.855
X15.309Y20.925
X15.448Y20.994
X15.641Y21.087
X15.844Y21.153
X16.145Y21.245
X16.307Y21.391
X16.489Y21.513
X16.500Y21.525
X16.575Y21.600
X16.747Y21.758
X16.939Y21.889
X16.951Y21.900
X16.986Y21.937
X17.049Y22.091
Y22.226
X0.000
Y24.449
X16.373
Y24.498
X16.387Y24.707
X16.428Y24.913
X16.496Y25.112
X16.560Y25.309
X16.649Y25.496
X16.720Y25.708
X16.821Y25.910
X16.949Y26.095
X17.101Y26.259
X17.177Y26.334
X17.252Y26.409
X17.327Y26.484
X17.402Y26.559
X17.477Y26.635
X17.514Y26.671
X0.000
Y28.894
X17.305
X17.317Y28.931
X17.407Y29.115
X17.482Y29.265
X17.566Y29.431
X17.669Y29.586
X17.789Y29.727
X17.922Y29.922
X18.072Y30.147
X18.160Y30.290
X18.263Y30.422
X18.379Y30.542
X18.454Y30.617
X18.465Y30.629
X18.597Y30.822
X18.755Y30.993
X18.830Y31.068
X18.878Y31.116
X0.000
Y33.339
X20.056
X20.067Y33.353
X20.183Y33.473
X20.330Y33.611
X20.493Y33.730
X20.506Y33.773
Y34.085
X20.479Y34.180
X20.411Y34.378
X20.370Y34.585
X20.356Y34.793
Y35.320
X20.370Y35.529
X20.376Y35.561
X0.000
Y37.784
X24.421
X24.466Y37.832
X24.541Y37.907
X24.616Y37.982
X24.627Y37.994
X24.730Y38.149
X24.850Y38.291
X24.944Y38.472
X25.061Y38.639
X25.072Y38.659
X25.147Y38.809
X25.263Y39.027
X25.412Y39.225
X25.368Y39.270
X25.293Y39.345
X25.217Y39.420
X25.064Y39.586
X24.934Y39.773
X24.833Y39.978
X24.824Y40.006
X0.000
Y42.229
X25.113
X25.217Y42.341
X25.373Y42.486
X25.550Y42.612
X25.745Y42.712
X25.952Y42.786
X26.164Y42.829
X26.377Y42.844
X26.678
X26.881Y42.831
X27.083Y42.791
X27.278Y42.726
X27.462Y42.637
X27.612Y42.561
X27.803Y42.462
X27.980Y42.337
X28.096Y42.229
G0Z5.080
G0X55.544Y15.559
G1Z-3.000F300.0
G1X57.352F1000.0
G0Z5.080
G0X63.460Y0.001
G1Z-3.000F300.0
G1X17.580F1000.0
X17.629Y0.171
X17.659Y0.348
X17.669Y0.526
Y0.977
X17.655Y1.188
X17.612Y1.398
X17.541Y1.602
X17.443Y1.793
X17.323Y1.967
X17.282Y2.036
X17.316Y2.072
X17.391Y2.147
X17.465Y2.224
X53.777
X53.699Y2.297
X53.623Y2.372
X53.548Y2.448
X53.401Y2.605
X53.276Y2.782
X53.177Y2.973
X53.102Y3.124
X53.011Y3.312
X52.945Y3.511
X52.859Y3.692
X52.795Y3.884
X52.757Y4.083
X52.744Y4.283
Y4.446
X18.808
X18.819Y4.479
X18.858Y4.681
X18.872Y4.885
Y5.561
X18.853Y5.806
X18.796Y6.045
X18.794Y6.105
X19.046Y6.078
X19.206Y5.904
X19.281Y5.829
X19.356Y5.754
X19.431Y5.679
X19.506Y5.604
X19.581Y5.529
X19.656Y5.454
X19.777Y5.338
X19.909Y5.235
X20.051Y5.147
X20.222Y5.028
X20.408Y4.932
X20.583Y4.846
X20.768Y4.783
X20.959Y4.742
X21.133Y4.691
X21.312Y4.660
X21.492Y4.650
X22.169
X22.413Y4.669
X22.652Y4.725
X22.850Y4.742
X23.045Y4.783
X23.233Y4.848
X23.342Y4.880
X23.525Y4.905
X23.703Y4.950
X23.972
X24.216Y4.969
X24.455Y5.026
X24.573
X24.818Y5.044
X25.056Y5.101
X25.550
X25.795Y5.120
X26.033Y5.176
X26.302
X26.505Y5.189
X26.707Y5.228
X26.902Y5.294
X27.086Y5.383
X27.208Y5.443
X27.417Y5.374
X27.576Y5.317
X27.741Y5.277
X27.909Y5.256
X28.071Y5.211
X28.238Y5.185
X28.406Y5.176
X28.825
X29.063Y5.120
X29.308Y5.101
X29.351
X29.446Y5.074
X29.644Y5.006
X29.850Y4.964
X30.059Y4.950
X30.435
X30.672Y4.968
X30.906Y5.022
X31.128Y5.109
X31.348Y5.149
X31.564Y5.220
X31.769Y5.322
X31.956Y5.451
X32.120Y5.604
X32.196Y5.679
X32.271Y5.754
X32.418Y5.912
X32.543Y6.089
X32.642Y6.280
X32.735Y6.473
X32.799Y6.669
X52.847
X52.726Y6.881
X52.651Y7.031
X52.576Y7.182
X52.501Y7.332
X52.426Y7.482
X52.334Y7.671
X52.269Y7.869
X52.186Y8.041
X52.125Y8.222
X52.085Y8.409
X52.010Y8.710
X51.959Y8.883
X51.958Y8.891
X32.719
X32.642Y9.050
X32.543Y9.242
X32.418Y9.419
X32.271Y9.576
X32.196Y9.651
X32.075Y9.767
X31.943Y9.870
X31.801Y9.958
X31.630Y10.077
X31.444Y10.173
X31.425Y10.184
X31.254Y10.303
X31.069Y10.398
X30.918Y10.473
X30.743Y10.559
X30.558Y10.623
X30.367Y10.663
X30.164Y10.721
X29.955Y10.751
X29.793Y10.795
X29.626Y10.822
X29.458Y10.831
X28.857
X28.613Y10.812
X28.374Y10.756
X28.105
X27.861Y10.737
X27.623Y10.680
X27.429
X27.185Y10.662
X26.946Y10.605
X25.475
X25.307Y10.596
X25.141Y10.570
X24.978Y10.525
X24.810Y10.504
X24.645Y10.464
X24.486Y10.407
X24.377Y10.375
X24.209Y10.353
X24.044Y10.314
X23.885Y10.257
X23.695Y10.196
X23.513Y10.111
X23.267Y10.150
X23.038Y10.207
X22.803Y10.229
X22.580Y10.283
X22.352Y10.304
X22.256Y10.332
X22.068Y10.397
X21.873Y10.438
X21.675Y10.455
X21.436Y10.511
X21.192Y10.530
X20.591
X20.346Y10.511
X20.107Y10.455
X19.939Y10.442
X19.772Y10.412
X19.610Y10.364
X19.571Y10.403
X19.305Y10.631
X19.266Y10.704
X19.241Y10.757
X19.247Y10.896
Y11.114
X52.400
X52.415Y11.135
X52.426Y11.155
X52.544Y11.377
X52.651Y11.605
X52.726Y11.756
X52.768Y11.844
X52.837Y12.106
X52.878Y12.300
X52.943Y12.487
X53.003Y12.674
X53.085Y12.853
X52.881Y12.892
X52.683Y12.957
X52.496Y13.048
X52.304Y13.147
X52.128Y13.272
X52.059Y13.336
X29.835
X29.846Y13.340
X29.991Y13.384
X30.256Y13.447
X30.465Y13.477
X30.668Y13.534
X30.861Y13.576
X31.048Y13.640
X31.274Y13.716
X31.471Y13.779
X31.658Y13.868
X31.870Y13.939
X32.072Y14.040
X32.257Y14.169
X32.421Y14.321
X32.496Y14.396
X32.642Y14.552
X32.767Y14.729
X32.868Y14.924
X32.941Y15.130
X32.985Y15.343
X32.999Y15.556
Y15.559
X51.166
Y15.856
X51.177Y16.037
X51.208Y16.216
X51.259Y16.390
X51.300Y16.583
X51.365Y16.770
X51.435Y16.984
X51.536Y17.187
X51.663Y17.372
X51.751Y17.514
X51.854Y17.647
X51.970Y17.767
X51.984Y17.781
X31.713
X31.687Y17.865
X31.583Y18.080
X31.450Y18.274
X31.340Y18.448
X31.208Y18.606
X31.076Y18.798
X30.918Y18.970
X30.843Y19.045
X30.768Y19.120
X30.693Y19.195
X30.617Y19.270
X30.542Y19.345
X30.422Y19.461
X30.290Y19.564
X30.147Y19.652
X29.953Y19.785
X29.941Y19.796
X29.866Y19.871
X29.724Y20.004
G0Z5.080
G0X24.255Y13.336
G1Z-3.000F300.0
G1X23.695F1000.0
G0Z5.080
G0X56.164Y2.224
G1Z-3.000F300.0
G1X63.500F1000.0
Y4.446
X57.122
Y5.110
X57.103Y5.354
X57.047Y5.593
Y6.162
X57.010Y6.500
X57.029Y6.606
X57.048Y6.669
X63.500
Y8.891
X57.195
X57.179Y9.107
X57.125Y9.340
X57.145Y9.361
X57.220Y9.436
X57.295Y9.512
X57.370Y9.587
X57.528Y9.758
X57.660Y9.951
X57.759Y10.065
X57.876Y10.109
X57.985Y10.140
X58.215Y10.175
X58.438Y10.243
X58.648Y10.343
X58.798Y10.418
X58.990Y10.517
X59.166Y10.642
X59.324Y10.789
X59.336Y10.800
X59.528Y10.931
X59.700Y11.090
X59.722Y11.114
X63.500
Y13.336
X61.199
X61.238Y13.519
X61.289Y13.693
X61.320Y13.872
X61.330Y14.053
Y14.128
X61.316Y14.337
X61.275Y14.543
X61.207Y14.741
X61.136Y14.955
X61.035Y15.160
X60.905Y15.347
X60.752Y15.513
X60.706Y15.559
X63.500
Y17.781
X54.801
G0Z5.080
G0X29.724Y20.004
G1Z-3.000F300.0
G1X63.500F1000.0
Y22.226
X23.177
X23.224Y22.282
X23.334Y22.456
X23.485Y22.681
X23.604Y22.853
X23.699Y23.038
X23.774Y23.188
X23.785Y23.208
X23.859Y23.308
X24.122Y23.286
X24.500
X24.541Y23.268
X24.733Y23.175
X24.937Y23.109
X25.135Y23.041
X25.341Y23.000
X25.550Y22.986
X27.279
X27.488Y23.000
X27.694Y23.041
X27.892Y23.109
X28.096Y23.175
X28.288Y23.268
X28.480Y23.367
X28.656Y23.492
X28.814Y23.639
X28.889Y23.714
X29.036Y23.872
X29.161Y24.049
X29.260Y24.240
X29.349Y24.424
X29.358Y24.449
X63.500
Y26.671
X28.926
X28.904Y26.695
X28.744Y26.830
X28.569Y26.942
X28.384Y27.069
X28.181Y27.170
X27.967Y27.240
X27.769Y27.308
X27.563Y27.349
X27.354Y27.363
X27.352
X27.197Y27.426
X27.161Y27.461
X27.086Y27.536
X26.922Y27.688
X26.736Y27.817
X26.535Y27.918
X26.323Y27.989
X26.106Y28.089
X25.892Y28.204
X25.883Y28.213
X25.872Y28.225
X25.739Y28.419
X25.728Y28.439
X25.633Y28.624
X25.514Y28.795
X25.503Y28.814
X25.463Y28.894
X25.720
G0Z5.080
G0X63.500
G1Z-3.000F300.0
G1X30.156F1000.0
X30.238Y28.982
X30.363Y29.159
X30.463Y29.350
X30.538Y29.501
X30.627Y29.684
X30.692Y29.879
X30.732Y30.081
X30.745Y30.285
Y30.360
X30.732Y30.563
X30.692Y30.765
X30.627Y30.960
X30.551Y31.116
X63.500
Y33.339
X30.060
X30.015Y33.465
X29.918Y33.656
X29.797Y33.830
X29.694Y33.993
X29.570Y34.144
X29.429Y34.279
X29.273Y34.395
X29.471Y34.529
X29.491Y34.540
X29.676Y34.636
X29.847Y34.755
X29.866Y34.766
X30.017Y34.841
X30.202Y34.937
X30.373Y35.056
X30.598Y35.206
X30.740Y35.294
X30.873Y35.397
X30.993Y35.513
X31.042Y35.561
X63.500
Y37.784
X32.398
Y37.875
X32.385Y38.078
X32.345Y38.280
X32.280Y38.475
X32.191Y38.659
X32.092Y38.850
X31.967Y39.027
X31.820Y39.184
X31.745Y39.259
X31.587Y39.407
X31.410Y39.531
X31.219Y39.631
X31.026Y39.724
X30.823Y39.790
X30.597Y39.865
X30.399Y39.933
X30.193Y39.974
X29.984Y39.988
X29.759
X29.550Y39.974
X29.343Y39.933
X29.145Y39.865
X28.988Y39.817
X28.813Y39.932
X28.659Y40.006
X63.500
Y42.229
X28.096
G0Z5.080
G0X63.500Y44.451
G1Z-3.000F300.0
G1X0.000F1000.0
Y46.674
X63.500
Y48.896
X0.000
Y51.119
X63.500
Y53.341
X0.000
Y55.564
X63.500
Y57.786
X0.000
Y60.009
X63.500
Y62.231
X0.000
Y64.454
X63.500
Y66.676
X0.000
Y68.899
X63.500
Y71.121
X0.000
Y73.344
X63.500
Y75.566
X0.000
Y77.789
X63.500
Y80.011
X0.000
Y82.234
X63.500
Y84.456
X0.000
Y86.678
X63.500
Y88.842
X63.496Y88.896
X63.460Y88.899
X0.040
G0Z5.080
G0X0.000Y0.058
G1Z-3.000F300.0
G1X0.004Y0.004F1000.0
X0.058Y0.000
X8.300
X8.232Y0.204
X8.163Y0.343
X8.088Y0.493
G2X7.881Y1.278I1.380J0.784
G1Y1.653
G2X8.088Y2.437I1.588J0.000
G1X8.303Y2.794
X8.546Y3.125
X8.771Y3.426
X8.997Y3.726
X9.222Y4.027
X9.355Y4.221
X9.366Y4.241
X9.405Y4.325
X9.384Y4.584
Y4.627
X9.376Y4.652
G2X8.685Y4.857I0.092J1.585
G1X8.534Y4.932
X8.178Y5.147
G2X7.783Y5.454I0.765J1.391
G1X7.708Y5.529
X7.696Y5.540
G2X7.332Y5.829I0.796J1.374
G2X7.025Y6.224I1.084J1.159
G1X6.875Y6.450
X6.742Y6.644
G2X6.435Y7.106I1.148J1.096
G1X6.360Y7.257
G2X6.153Y8.041I1.380J0.784
G1Y8.341
G2X6.228Y8.824I1.588J0.000
G1Y9.093
G2X6.435Y9.877I1.588J0.000
G2X6.806Y10.403I1.455J-0.634
G1X6.881Y10.478
X6.956Y10.553
X7.032Y10.628
X7.107Y10.703
G2X8.266Y11.206I1.159J-1.084
G1X9.168
G2X9.952Y10.999I0.000J-1.588
G1X10.308Y10.785
G2X10.703Y10.478I-0.765J-1.391
G1X10.778Y10.403
G2X11.085Y10.008I-1.084J-1.159
G1X11.218Y9.813
X11.229Y9.801
G2X11.536Y9.407I-1.084J-1.159
G1X11.686Y9.181
X11.837Y8.956
X12.051Y8.599
X12.126Y8.449
G2X12.334Y7.665I-1.380J-0.784
G1Y7.552
X12.482Y7.507
G2X13.022Y7.323I-0.233J-1.570
G1X13.397Y7.173
X13.416Y7.168
X13.419Y7.171
X13.494Y7.246
X13.503Y7.255
X13.574Y7.397
X13.616Y7.485
X13.716Y7.828
X13.791Y8.053
X13.822Y8.162
X13.893Y8.523
Y8.567
G2X13.968Y9.050I1.588J0.000
G1Y11.691
G2X13.893Y12.141I1.512J0.483
G1X13.866Y12.237
X13.791Y12.462
G2X13.668Y13.043I1.464J0.613
G2X13.592Y13.527I1.512J0.484
G1Y13.795
G2X13.517Y14.278I1.512J0.483
G1Y14.397
X13.490Y14.491
X13.384Y14.872
X13.340Y15.017
X13.234Y15.398
X13.159Y15.698
X13.114Y15.844
X13.039Y16.070
X12.964Y16.295
G2X12.846Y16.787I1.464J0.613
G1X12.770Y17.163
G2X12.691Y17.660I1.508J0.497
G1Y17.885
G2X12.814Y18.499I1.588J0.000
G2X13.205Y19.207I1.539J-0.388
G2X13.494Y19.571I1.374J-0.796
G1X13.505Y19.582
G2X13.795Y19.946I1.374J-0.796
G1X13.870Y20.022
X13.945Y20.097
X14.020Y20.172
G2X14.546Y20.543I1.159J-1.084
G1X14.696Y20.618
X14.716Y20.629
G2X15.309Y20.925I0.990J-1.241
G1X15.448Y20.994
X15.844Y21.153
X16.145Y21.245
X16.489Y21.513
X16.500Y21.525
X16.575Y21.600
G2X16.939Y21.889I1.159J-1.084
G1X16.951Y21.900
X16.986Y21.937
X17.049Y22.091
Y22.513
X16.991Y22.762
X16.949Y22.899
X16.881Y23.038
X16.870Y23.057
X16.655Y23.414
X16.496Y23.810
G2X16.373Y24.423I1.464J0.613
G1Y24.498
G2X16.496Y25.112I1.588J0.000
G1X16.649Y25.496
G2X17.101Y26.259I1.537J-0.397
G1X17.177Y26.334
X17.252Y26.409
X17.327Y26.484
X17.402Y26.559
X17.477Y26.635
X17.552Y26.710
X17.638Y26.794
X17.407Y27.171
G2X17.199Y27.955I1.380J0.784
G1Y28.331
G2X17.407Y29.115I1.588J0.000
G1X17.482Y29.265
G2X17.789Y29.727I1.455J-0.634
G1X17.922Y29.922
X18.072Y30.147
G2X18.379Y30.542I1.391J-0.765
G1X18.454Y30.617
X18.465Y30.629
G2X18.755Y30.993I1.374J-0.796
G1X18.830Y31.068
X18.905Y31.144
X18.980Y31.219
X18.991Y31.230
G2X19.529Y31.784I1.374J-0.796
G1Y32.088
G2X19.876Y33.078I1.588J0.000
G2X20.183Y33.473I1.391J-0.765
G1X20.493Y33.730
X20.506Y33.773
Y34.085
X20.479Y34.180
G2X20.356Y34.793I1.464J0.613
G1Y35.320
G2X20.479Y35.933I1.588J0.000
G1X20.554Y36.158
G2X21.009Y36.930I1.539J-0.388
G2X22.169Y37.433I1.159J-1.084
G1X22.695
G2X23.685Y37.086I0.000J-1.588
G1X23.937Y36.914
X24.095Y37.306
G2X24.466Y37.832I1.455J-0.634
G1X24.541Y37.907
X24.616Y37.982
X24.627Y37.994
X24.850Y38.291
X25.061Y38.639
X25.072Y38.659
X25.147Y38.809
G2X25.412Y39.225I1.455J-0.634
G1X25.368Y39.270
X25.293Y39.345
X25.217Y39.420
G2X24.762Y40.192I1.084J1.159
G2X24.639Y40.805I1.464J0.613
G1Y41.031
G2X24.846Y41.815I1.588J0.000
G2X25.217Y42.341I1.455J-0.634
G2X26.377Y42.844I1.159J-1.084
G1X26.678
G2X27.462Y42.637I0.000J-1.587
G1X27.612Y42.561
G2X28.138Y42.190I-0.634J-1.455
G1X28.213Y42.115
G2X28.584Y41.589I-1.084J-1.159
G2X28.791Y40.805I-1.380J-0.784
G1Y40.730
G2X28.625Y40.023I-1.588J0.000
G1X28.988Y39.817
X29.145Y39.865
G2X29.759Y39.988I0.613J-1.464
G1X29.984
G2X30.597Y39.865I0.000J-1.587
G1X30.823Y39.790
X31.219Y39.631
G2X31.745Y39.259I-0.634J-1.455
G1X31.820Y39.184
G2X32.191Y38.659I-1.084J-1.159
G2X32.398Y37.875I-1.380J-0.784
G1Y37.649
G2X32.191Y36.865I-1.587J0.000
G2X31.820Y36.339I-1.455J0.634
G1X31.745Y36.264
X31.670Y36.189
X31.384Y35.948
X31.144Y35.663
X31.068Y35.588
X30.993Y35.513
G2X30.598Y35.206I-1.159J1.084
G1X30.373Y35.056
X30.017Y34.841
X29.866Y34.766
X29.847Y34.755
X29.491Y34.540
X29.471Y34.529
X29.273Y34.395
G2X29.797Y33.830I-0.867J-1.330
G2X30.144Y32.840I-1.241J-0.990
G1Y32.314
G2X30.053Y31.784I-1.587J0.000
G1X30.091Y31.745
X30.167Y31.670
G2X30.538Y31.144I-1.084J-1.159
G2X30.745Y30.360I-1.380J-0.784
G1Y30.285
G2X30.538Y29.501I-1.588J0.000
G1X30.463Y29.350
G2X30.091Y28.825I-1.455J0.634
G1X30.016Y28.749
X29.941Y28.674
G2X28.782Y28.171I-1.159J1.084
G1X28.438
G2X27.955Y28.096I-0.483J1.512
G1X27.880
G2X27.346Y28.188I0.000J1.588
G2X26.795Y28.378I0.233J1.570
G1X26.645Y28.453
X26.506Y28.522
X26.119Y28.679
X25.969Y28.754
X25.612Y28.969
X25.387Y29.119
X25.379Y29.123
X25.342Y29.133
X25.428Y28.965
X25.503Y28.814
X25.514Y28.795
X25.728Y28.439
X25.739Y28.419
X25.872Y28.225
X25.883Y28.213
X25.892Y28.204
X26.106Y28.089
X26.323Y27.989
G2X27.086Y27.536I-0.397J-1.537
G1X27.161Y27.461
X27.197Y27.426
X27.352Y27.363
X27.354
G2X27.967Y27.240I0.000J-1.588
G2X28.569Y26.942I-0.388J-1.539
G2X29.260Y26.184I-0.765J-1.391
G2X29.467Y25.400I-1.380J-0.784
G1Y25.024
G2X29.260Y24.240I-1.588J0.000
G2X28.889Y23.714I-1.455J0.634
G1X28.814Y23.639
G2X28.288Y23.268I-1.159J1.084
G1X27.892Y23.109
G2X27.279Y22.986I-0.613J1.464
G1X25.550
G2X24.937Y23.109I0.000J1.588
G1X24.541Y23.268
X24.500Y23.286
X24.122
X23.859Y23.308
X23.785Y23.208
X23.774Y23.188
X23.699Y23.038
X23.485Y22.681
X23.334Y22.456
X23.092Y22.125
X22.959Y21.930
X22.808Y21.705
X22.798Y21.685
X22.722Y21.535
X22.647Y21.385
X22.572Y21.234
X22.497Y21.084
X22.422Y20.934
X22.384Y20.854
X22.501Y20.544
X22.532Y20.552
X22.913Y20.658
X23.058Y20.702
G2X23.639Y20.825I0.613J-1.464
G1X23.735Y20.852
G2X24.348Y20.976I0.613J-1.464
G1X24.724
G2X25.257Y20.883I0.000J-1.588
G1X25.638Y20.777
X25.747Y20.746
X25.888Y20.728
X25.919Y20.733
G2X26.452Y20.825I0.533J-1.495
G1X27.579
G2X28.076Y20.746I0.000J-1.588
G2X28.739Y20.543I-0.121J-1.583
G1X28.889Y20.468
X29.040Y20.393
X29.190Y20.318
X29.340Y20.242
G2X29.866Y19.871I-0.634J-1.455
G1X29.941Y19.796
X29.953Y19.785
X30.147Y19.652
G2X30.542Y19.345I-0.765J-1.391
G1X30.617Y19.270
X30.693Y19.195
X30.768Y19.120
X30.843Y19.045
X30.918Y18.970
G2X31.208Y18.606I-1.084J-1.159
G1X31.450Y18.274
G2X31.792Y17.405I-1.241J-0.990
G1X31.830Y17.272
X31.895Y17.237
G2X32.421Y16.865I-0.634J-1.455
G1X32.496Y16.790
G2X32.999Y15.631I-1.084J-1.159
G1Y15.556
G2X32.496Y14.396I-1.588J0.000
G1X32.421Y14.321
G2X31.658Y13.868I-1.159J1.084
G1X31.274Y13.716
X31.048Y13.640
X30.668Y13.534
X30.256Y13.447
X29.991Y13.384
X29.846Y13.340
X29.629Y13.267
X29.254Y13.117
X28.869Y12.964
X28.489Y12.858
G2X27.955Y12.766I-0.533J1.495
G1X27.536
X27.286Y12.708
X26.986Y12.633
G2X26.452Y12.540I-0.533J1.495
G1X25.926
G2X25.142Y12.747I0.000J1.588
G1X24.992Y12.823
G2X24.529Y13.130I0.634J1.455
G2X24.165Y13.419I0.796J1.374
G1X24.090Y13.494
X24.078Y13.505
X23.807Y13.703
G2X23.624Y13.193I-1.564J0.274
G2X23.253Y12.668I-1.455J0.634
G2X22.727Y12.297I-1.159J1.084
G2X21.943Y12.089I-0.784J1.380
G1X20.591
G2X19.806Y12.297I0.000J1.588
G1X19.450Y12.511
X19.431Y12.522
X19.118Y12.703
X19.093Y12.667
G2X19.172Y12.207I-1.509J-0.493
G2X19.247Y11.723I-1.512J-0.484
G1Y10.896
X19.241Y10.757
X19.266Y10.704
X19.305Y10.631
X19.571Y10.403
X19.610Y10.364
G2X20.107Y10.455I0.529J-1.497
G2X20.591Y10.530I0.484J-1.512
G1X21.192
G2X21.675Y10.455I0.000J-1.588
G2X22.256Y10.332I-0.033J-1.587
G1X22.352Y10.304
G2X22.803Y10.229I-0.033J-1.587
G2X23.267Y10.150I-0.033J-1.587
G1X23.513Y10.111
X23.885Y10.257
G2X24.377Y10.375I0.613J-1.464
G1X24.486Y10.407
G2X24.978Y10.525I0.613J-1.464
G2X25.475Y10.605I0.497J-1.508
G1X26.946
G2X27.429Y10.680I0.483J-1.512
G1X27.623
G2X28.105Y10.756I0.483J-1.512
G1X28.374
G2X28.857Y10.831I0.483J-1.512
G1X29.458
G2X29.955Y10.751I0.000J-1.588
G1X30.367Y10.663
G2X30.918Y10.473I-0.233J-1.570
G1X31.069Y10.398
X31.425Y10.184
X31.444Y10.173
X31.801Y9.958
G2X32.196Y9.651I-0.765J-1.391
G1X32.271Y9.576
G2X32.642Y9.050I-1.084J-1.159
G2X32.849Y8.266I-1.380J-0.784
G1Y8.223
G2X32.924Y7.740I-1.512J-0.483
G1Y7.289
G2X32.801Y6.676I-1.588J0.000
G1X32.642Y6.280
G2X32.271Y5.754I-1.455J0.634
G1X32.196Y5.679
X32.120Y5.604
G2X31.128Y5.109I-1.159J1.084
G2X30.435Y4.950I-0.693J1.428
G1X30.059
G2X29.446Y5.074I0.000J1.588
G1X29.351Y5.101
X29.308
G2X28.825Y5.176I0.000J1.588
G1X28.406
G2X27.909Y5.256I0.000J1.588
G2X27.417Y5.374I0.121J1.583
G1X27.208Y5.443
X27.086Y5.383
G2X26.302Y5.176I-0.784J1.380
G1X26.033
G2X25.550Y5.101I-0.483J1.512
G1X25.056
G2X24.573Y5.026I-0.483J1.512
G1X24.455
G2X23.972Y4.950I-0.483J1.512
G1X23.703
X23.342Y4.880
X23.233Y4.848
G2X22.652Y4.725I-0.613J1.464
G2X22.169Y4.650I-0.484J1.512
G1X21.492
G2X20.959Y4.742I0.000J1.588
G2X20.408Y4.932I0.233J1.570
G1X20.051Y5.147
G2X19.656Y5.454I0.765J1.391
G1X19.581Y5.529
X19.506Y5.604
X19.431Y5.679
X19.356Y5.754
X19.281Y5.829
X19.206Y5.904
X19.046Y6.078
X18.794Y6.105
X18.796Y6.045
G2X18.872Y5.561I-1.512J-0.484
G1Y4.885
G2X18.664Y4.101I-1.588J0.000
G1X18.589Y3.950
X18.514Y3.800
X18.439Y3.650
G2X18.132Y3.187I-1.455J0.634
G1X17.999Y2.993
X17.849Y2.767
X17.698Y2.542
G2X17.391Y2.147I-1.391J0.765
G1X17.316Y2.072
X17.282Y2.036
X17.323Y1.967
G2X17.669Y0.977I-1.241J-0.990
G1Y0.526
G2X17.579Y0.000I-1.588J0.000
G1X63.442
X63.496Y0.004
X63.500Y0.058
Y88.842
X63.496Y88.896
X63.442Y88.900
X0.058
X0.004Y88.896
X0.000Y88.842
Y0.058
G0Z5.080
G0X51.918Y9.844
G1Z-3.000F300.0
G2X52.125Y10.628I1.588J0.000F1000.0
G1X52.200Y10.779
X52.415Y11.135
X52.426Y11.155
X52.544Y11.377
X52.651Y11.605
X52.726Y11.756
X52.768Y11.844
X52.837Y12.106
X52.943Y12.487
X53.085Y12.853
G2X52.496Y13.048I0.195J1.576
G2X51.970Y13.419I0.634J1.455
G1X51.895Y13.494
G2X51.524Y14.020I1.084J1.159
G1X51.449Y14.170
G2X51.259Y14.722I1.380J0.784
G2X51.166Y15.255I1.495J0.533
G1Y15.856
G2X51.259Y16.390I1.588J0.000
G1X51.365Y16.770
G2X51.663Y17.372I1.539J-0.388
G2X51.970Y17.767I1.391J-0.765
G1X52.045Y17.842
G2X53.205Y18.345I1.159J-1.084
G1X53.580
G2X54.740Y17.842I0.000J-1.588
G1X54.815Y17.767
G2X55.186Y17.242I-1.084J-1.159
G1X55.345Y16.845
X55.451Y16.465
G2X55.544Y15.931I-1.495J-0.533
G1Y15.255
X55.501Y14.888
X55.534Y14.889
X55.985
G2X56.685Y14.726I0.000J-1.588
G1X56.698Y14.742
X56.848Y14.968
G2X57.155Y15.362I1.391J-0.765
G1X57.230Y15.438
X57.306Y15.513
X57.381Y15.588
G2X58.419Y16.086I1.159J-1.084
G2X58.916Y16.166I0.497J-1.508
G1X59.367
G2X60.151Y15.959I0.000J-1.588
G2X60.677Y15.588I-0.634J-1.455
G1X60.752Y15.513
G2X61.207Y14.741I-1.084J-1.159
G2X61.330Y14.128I-1.464J-0.613
G1Y14.053
G2X61.238Y13.519I-1.587J0.000
G1X61.132Y13.139
X60.973Y12.743
X60.758Y12.386
G2X60.451Y11.991I-1.391J0.765
G1X60.376Y11.916
X60.301Y11.841
X60.290Y11.829
G2X60.000Y11.465I-1.374J0.796
G1X59.989Y11.454
G2X59.700Y11.090I-1.374J0.796
G2X59.336Y10.800I-1.159J1.084
G1X59.324Y10.789
G2X58.798Y10.418I-1.159J1.084
G1X58.648Y10.343
G2X57.985Y10.140I-0.784J1.380
G1X57.876Y10.109
X57.759Y10.065
X57.660Y9.951
G2X57.370Y9.587I-1.374J0.796
G1X57.295Y9.512
X57.220Y9.436
X57.145Y9.361
X57.125Y9.340
G2X57.197Y8.867I-1.515J-0.473
G1Y7.891
G2X57.122Y7.408I-1.587J0.000
G1Y7.139
G2X57.029Y6.606I-1.587J0.000
G1X57.010Y6.500
X57.047Y6.162
Y5.593
G2X57.122Y5.110I-1.512J-0.483
G1Y4.359
G2X57.029Y3.825I-1.587J0.000
G1X56.923Y3.445
X56.764Y3.048
X56.689Y2.898
G2X56.318Y2.372I-1.455J0.634
G1X56.243Y2.297
G2X55.083Y1.794I-1.159J1.084
G1X54.858
G2X53.699Y2.297I0.000J1.588
G1X53.623Y2.372
X53.548Y2.448
G2X53.177Y2.973I1.084J1.159
G1X53.102Y3.124
X52.945Y3.511
G2X52.744Y4.283I1.387J0.773
G1Y4.885
G2X52.820Y5.367I1.588J0.000
G1Y5.636
G2X52.895Y6.119I1.587J0.000
G1Y6.237
X52.911Y6.463
X52.899Y6.567
X52.892Y6.588
X52.726Y6.881
X52.651Y7.031
X52.576Y7.182
X52.501Y7.332
X52.426Y7.482
X52.269Y7.869
G2X52.085Y8.409I1.387J0.773
G1X52.010Y8.710
G2X51.918Y9.243I1.495J0.533
G1Y9.844
G0Z5.080
G0X6.594Y0.001
G1Z-4.000F300.0
G1X0.040F1000.0
X0.004Y0.004
X0.000Y0.058
Y2.224
X6.994
X7.066Y2.317
X7.182Y2.437
X7.193Y2.449
X7.324Y2.641
X7.483Y2.813
X7.558Y2.888
X7.633Y2.963
X7.708Y3.038
X7.783Y3.113
X7.858Y3.188
X7.933Y3.264
X8.048Y3.374
X8.092Y3.423
X8.163Y3.565
X8.239Y3.715
X8.334Y3.900
X8.453Y4.071
X8.603Y4.297
X8.620Y4.325
X8.439Y4.446
X0.000
Y6.669
X5.940
X5.909Y6.731
X5.834Y6.881
X5.759Y7.031
X5.666Y7.224
X5.600Y7.428
X5.532Y7.626
X5.490Y7.832
X5.476Y8.041
Y8.492
X5.495Y8.736
X5.532Y8.891
X0.000
Y11.114
X6.259
X6.271Y11.132
X6.409Y11.284
X6.453Y11.454
Y11.873
X6.467Y12.082
X6.509Y12.289
X6.577Y12.487
X6.647Y12.701
X6.749Y12.905
X6.878Y13.093
X7.032Y13.258
X7.107Y13.333
X7.110Y13.336
X0.000
Y15.559
G0Z5.080
G0X13.517Y8.891
G1Z-4.000F300.0
G1X13.235F1000.0
X13.179Y9.049
X13.078Y9.243
X12.953Y9.420
X12.807Y9.576
X12.732Y9.651
X12.657Y9.726
X12.492Y9.880
X12.304Y10.009
X12.100Y10.111
X11.886Y10.181
X11.717Y10.241
X11.543Y10.281
X11.464Y10.319
X11.455Y10.328
X11.444Y10.339
X11.324Y10.517
X11.180Y10.679
X11.015Y10.819
X10.834Y10.935
X10.680Y11.044
Y11.114
X13.442
Y11.798
X13.443Y11.836
X13.442Y11.873
Y12.142
X13.384Y12.392
X13.340Y12.538
X13.275Y12.725
X13.233Y12.920
X13.217Y13.118
X13.165Y13.336
X10.019
G0Z5.080
G0X0.000Y15.559
G1Z-4.000F300.0
G1X12.724F1000.0
X12.708Y15.623
X12.664Y15.769
X12.588Y15.994
X12.513Y16.220
X12.438Y16.445
X12.373Y16.632
X12.332Y16.826
X12.288Y16.971
X12.213Y17.197
X12.138Y17.422
X12.070Y17.620
X12.037Y17.781
X0.000
Y20.004
X12.836
X12.946Y20.079
X13.150Y20.181
X13.364Y20.251
X13.581Y20.324
X13.711Y20.389
X13.720Y20.397
X13.795Y20.472
X13.870Y20.548
X13.945Y20.623
X14.103Y20.770
X14.280Y20.895
X14.471Y20.994
X14.621Y21.069
X14.772Y21.144
X14.922Y21.219
X15.110Y21.311
X15.309Y21.376
X15.448Y21.445
X15.598Y21.520
X15.748Y21.595
X15.890Y21.667
X15.899Y21.675
X15.974Y21.750
X16.049Y21.825
X16.170Y21.941
X16.302Y22.044
X16.444Y22.132
X16.586Y22.226
X0.000
Y24.449
X15.055
X14.998Y24.619
X14.958Y24.821
X14.945Y25.024
Y25.400
X14.958Y25.604
X14.998Y25.806
X15.063Y26.001
X15.152Y26.184
X15.251Y26.375
X15.376Y26.552
X15.487Y26.671
X0.000
Y28.894
X16.603
X16.641Y29.007
X16.730Y29.190
X16.814Y29.356
X16.917Y29.511
X17.037Y29.652
X17.169Y29.845
X17.327Y30.016
X17.402Y30.091
X17.413Y30.103
X17.545Y30.296
X17.703Y30.467
X17.778Y30.542
X17.789Y30.554
X17.898Y30.718
X18.026Y30.867
Y31.116
X0.000
Y33.339
X19.376
X19.431Y33.398
X19.551Y33.514
X19.684Y33.617
X19.826Y33.705
X20.016Y33.835
X19.955Y34.021
X19.887Y34.160
X19.811Y34.310
X19.718Y34.503
X19.652Y34.706
X19.587Y34.893
X19.546Y35.087
X19.471Y35.387
X19.420Y35.561
X0.000Y35.561
Y37.784
X19.988
X20.032Y37.832
X20.107Y37.907
X20.183Y37.982
X20.258Y38.057
X20.415Y38.204
X20.592Y38.329
X20.783Y38.428
X20.934Y38.503
X21.117Y38.593
X21.312Y38.658
X21.514Y38.697
X21.718Y38.711
X22.093
X22.297Y38.697
X22.499Y38.658
X22.694Y38.593
X22.878Y38.503
X23.028Y38.428
X23.178Y38.353
X23.328Y38.278
X23.520Y38.179
X23.697Y38.054
X23.854Y37.907
X23.921Y37.841
X24.034Y37.994
X24.165Y38.132
X24.241Y38.207
X24.316Y38.283
X24.391Y38.358
X24.402Y38.369
X24.535Y38.564
X24.637Y38.726
X24.682Y38.851
X24.612Y39.065
X24.539Y39.281
X24.471Y39.420
X24.395Y39.570
X24.261Y39.879
X24.181Y40.006
X0.000
Y42.229
X23.437
Y43.060
X23.451Y43.269
X23.492Y43.475
X23.560Y43.673
X23.626Y43.877
X23.719Y44.069
X23.818Y44.261
X23.943Y44.437
X23.956Y44.451
X0.000
Y46.674
G0Z5.080
G0X49.856Y0.001
G1Z-4.000F300.0
G1X19.655F1000.0
X19.720Y0.194
X19.760Y0.397
X19.773Y0.601
Y0.827
X19.759Y1.036
X19.718Y1.242
X19.650Y1.440
X19.584Y1.643
X19.491Y1.836
X19.392Y2.027
X19.267Y2.204
X19.249Y2.224
X50.405
X50.548Y2.357
X50.725Y2.483
X50.920Y2.584
X51.126Y2.657
X51.339Y2.700
X51.551Y2.715
X51.604
X51.820Y2.963
X51.895Y3.038
X51.970Y3.113
X52.033Y3.177
X52.003Y3.353
X51.993Y3.532
Y3.575
X51.937Y3.814
X51.918Y4.058
Y4.446
X33.067
X33.097Y4.477
X33.244Y4.634
X33.369Y4.811
X33.469Y5.002
X33.558Y5.186
X33.623Y5.381
X33.663Y5.583
X33.676Y5.786
Y6.669
X51.993
X51.966Y6.751
X51.893Y6.968
X51.824Y7.106
X51.749Y7.257
X51.674Y7.407
X51.599Y7.557
X51.524Y7.708
X51.449Y7.858
X51.356Y8.051
X51.290Y8.254
X51.224Y8.442
X51.183Y8.637
X51.167Y8.835
X51.153Y8.891
X33.826
Y9.018
X33.812Y9.230
X33.768Y9.443
X33.695Y9.650
X33.594Y9.844
X33.468Y10.022
X33.323Y10.177
X33.248Y10.252
X33.172Y10.328
X33.097Y10.403
X32.940Y10.550
X32.763Y10.675
X32.572Y10.774
X32.379Y10.867
X32.175Y10.933
X31.977Y11.001
X31.771Y11.042
X31.562Y11.056
X31.412
X31.137Y11.032
X30.819Y11.114
X51.579
X51.599Y11.155
X51.695Y11.340
X51.814Y11.511
X51.924Y11.684
X52.056Y11.842
X52.108Y11.925
X52.160Y12.106
X52.219Y12.358
X52.075Y12.447
X51.942Y12.551
X51.820Y12.668
X51.745Y12.743
X51.670Y12.818
X51.594Y12.893
X51.519Y12.968
X51.444Y13.043
X51.369Y13.119
X51.294Y13.194
X51.219Y13.269
X51.151Y13.336
X32.990
X33.161Y13.417
X33.360Y13.483
X33.549Y13.574
X33.699Y13.649
X33.890Y13.748
X34.067Y13.873
X34.225Y14.020
X34.300Y14.096
X34.375Y14.171
X34.520Y14.326
X34.646Y14.504
X34.747Y14.698
X34.820Y14.905
X34.864Y15.118
X34.878Y15.330
Y15.559
X50.490
Y15.781
X50.503Y15.981
X50.541Y16.180
X50.604Y16.372
X50.691Y16.554
X50.754Y16.746
X50.841Y16.929
X50.883Y17.066
X50.924Y17.260
X50.989Y17.446
X51.016Y17.541
Y17.781
X33.234
X33.172Y17.842
X33.097Y17.917
X32.940Y18.065
X32.763Y18.189
X32.572Y18.289
X32.421Y18.364
X32.271Y18.439
X32.129Y18.510
X32.120Y18.519
X32.045Y18.594
X31.970Y18.669
X31.895Y18.744
X31.820Y18.819
X31.745Y18.894
X31.670Y18.970
X31.594Y19.045
X31.480Y19.156
X31.369Y19.270
X31.294Y19.345
X31.173Y19.461
X31.041Y19.564
X30.899Y19.652
X30.704Y19.785
X30.693Y19.796
X30.617Y19.871
X30.542Y19.946
X30.485Y20.004
X52.107
X52.201Y20.092
X52.378Y20.217
X52.573Y20.318
X52.779Y20.392
X52.992Y20.435
X53.205Y20.450
X53.580
X53.789Y20.436
X53.996Y20.394
X54.194Y20.326
X54.397Y20.260
X54.590Y20.167
X54.740Y20.092
X54.913Y20.004
G0Z5.080
G0X56.069Y0.001
G1Z-4.000F300.0
G1X63.460F1000.0
X63.496Y0.004
X63.500Y0.058
Y2.224
X57.666
X57.704Y2.386
X57.723Y2.630
Y3.350
X57.769Y3.529
X57.794Y3.711
X57.842Y3.897
X57.869Y4.087
X57.918Y4.273
X57.942Y4.446
X63.500
Y6.669
X58.121
X58.131Y6.689
X58.196Y6.884
X58.236Y7.086
X58.249Y7.289
Y7.665
X58.230Y7.909
X58.174Y8.148
Y8.266
X58.161Y8.470
X58.121Y8.672
X58.056Y8.867
X58.044Y8.891
X63.500
Y11.114
X60.775
X60.868Y11.210
X60.971Y11.342
X61.059Y11.484
X61.178Y11.656
X61.273Y11.841
X61.348Y11.991
X61.424Y12.141
X61.499Y12.292
X61.592Y12.484
X61.658Y12.688
X61.723Y12.875
X61.764Y13.068
X61.808Y13.214
X61.849Y13.336
X63.500
Y15.559
X61.961
X61.953Y15.579
X61.856Y15.771
X61.735Y15.945
X61.614Y16.132
X61.466Y16.302
X61.296Y16.450
X61.108Y16.571
X60.923Y16.699
X60.720Y16.799
X60.506Y16.870
X60.308Y16.938
X60.102Y16.979
X59.893Y16.993
X59.066
X58.866Y16.980
X58.667Y16.942
X58.475Y16.879
X58.294Y16.792
X58.095Y16.727
X57.906Y16.635
X57.756Y16.560
X57.565Y16.461
X57.388Y16.336
X57.230Y16.189
X57.155Y16.114
X57.080Y16.039
X57.068Y16.028
X56.876Y15.896
X56.704Y15.738
X56.623Y15.657
X56.619Y15.658
X56.469Y15.734
X56.295Y15.819
Y16.833
X56.276Y17.078
X56.220Y17.317
X56.207Y17.487
X56.176Y17.654
X56.139Y17.781
X63.500
Y20.004
X54.913
G0Z5.080
G0X63.500Y22.226
G1Z-4.000F300.0
G1X32.887F1000.0
X32.872Y22.212
X32.714Y22.064
X32.538Y21.940
X32.346Y21.840
X32.136Y21.741
X31.913Y21.672
X31.683Y21.638
X31.521Y21.594
X31.354Y21.567
X31.186Y21.558
X30.660
X30.492Y21.567
X30.326Y21.594
X30.163Y21.638
X29.934Y21.672
X29.710Y21.741
X29.501Y21.840
X29.456Y21.861
X29.273Y21.880
X29.093Y21.921
X28.920Y21.982
X28.811Y22.014
X28.602Y22.044
X28.398Y22.101
X28.205Y22.142
X28.018Y22.207
X27.961Y22.226
X24.196
G0Z5.080
G0X29.088Y4.446
G1Z-4.000F300.0
G1X24.455F1000.0
X24.442Y4.443
X24.198Y4.424
X24.079
X23.841Y4.368
X23.596Y4.349
X23.328
X23.078Y4.291
X22.904Y4.240
X22.725Y4.209
X22.544Y4.199
X22.501
X22.263Y4.143
X22.018Y4.124
X21.718
X21.474Y4.143
X21.235Y4.199
X21.192
X20.983Y4.213
X20.776Y4.254
X20.578Y4.322
X20.364Y4.393
X20.256Y4.446
X19.184
G0Z5.080
G0X33.424Y24.449
G1Z-4.000F300.0
G1X63.500F1000.0
Y26.671
X30.816
X30.749Y26.716
X30.582Y26.833
X30.401Y26.927
X30.260Y27.046
X30.106Y27.148
X29.942Y27.231
X29.791Y27.306
X29.687Y27.360
X29.691Y27.362
X29.955Y27.424
X30.145Y27.450
X30.331Y27.499
X30.521Y27.526
X30.706Y27.575
X30.936Y27.609
X31.159Y27.677
X31.369Y27.777
X31.574Y27.885
X31.788Y27.870
X32.764
X32.968Y27.884
X33.170Y27.923
X33.365Y27.988
X33.549Y28.078
X33.734Y28.173
X33.905Y28.292
X34.130Y28.443
X34.272Y28.531
X34.405Y28.633
X34.525Y28.749
X34.600Y28.825
X34.670Y28.894
X63.500
Y31.116
X35.630
Y31.186
X35.616Y31.395
X35.574Y31.602
X35.506Y31.800
X35.436Y32.014
X35.334Y32.218
X35.205Y32.406
X35.051Y32.571
X34.976Y32.646
X34.901Y32.722
X34.826Y32.797
X34.751Y32.872
X34.675Y32.947
X34.600Y33.022
X34.525Y33.097
X34.368Y33.244
X34.234Y33.339
X63.500
Y35.561
X32.094
X32.120Y35.588
X32.196Y35.663
X32.271Y35.738
X32.417Y35.895
X32.541Y36.069
X32.736Y36.210
X32.910Y36.381
X33.055Y36.577
X33.168Y36.790
X33.257Y36.973
X33.322Y37.168
X33.362Y37.370
X33.375Y37.574
Y37.784
X63.500
Y40.006
X32.650
X32.501Y40.131
X32.327Y40.243
X32.156Y40.362
X31.970Y40.457
X31.778Y40.550
X31.574Y40.616
X31.415Y40.673
X31.250Y40.713
X31.082Y40.735
X30.920Y40.779
X30.753Y40.806
X30.585Y40.815
X30.144
X30.129Y41.021
X30.088Y41.224
X30.020Y41.419
X29.950Y41.633
X29.850Y41.835
X29.722Y42.021
X29.611Y42.194
X29.583Y42.229
X63.500
Y44.451
X27.605
G0Z5.080
G0X0.000Y46.674
G1Z-4.000F300.0
G1X63.500F1000.0
Y48.896
X29.468
X29.484Y48.916
X29.572Y49.058
X29.691Y49.230
X29.786Y49.415
X29.875Y49.598
X29.941Y49.793
X29.980Y49.995
X29.993Y50.199
Y50.575
X29.979Y50.787
X29.935Y51.000
X29.893Y51.119
X63.500
Y53.341
G0Z5.080
G0X25.042Y48.896
G1Z-4.000F300.0
G1X0.000F1000.0
Y51.119
X25.189
G0Z5.080
G0X63.500Y53.341
G1Z-4.000F300.0
G1X0.000F1000.0
Y55.564
X63.500
Y57.786
X0.000
Y60.009
X63.500
Y62.231
X0.000
Y64.454
X63.500
Y66.676
X24.409
X24.502Y66.808
X24.601Y66.999
X24.676Y67.150
X24.762Y67.325
X24.826Y67.510
X24.866Y67.701
X24.924Y67.904
X24.954Y68.113
X24.998Y68.275
X25.025Y68.442
X25.034Y68.610
Y68.899
X63.500
Y71.121
X24.675
X24.588Y71.295
X24.458Y71.483
X24.305Y71.648
X24.230Y71.723
X24.074Y71.869
X23.897Y71.994
X23.702Y72.095
X23.496Y72.169
X23.283Y72.212
X23.070Y72.227
X22.770
X22.566Y72.213
X22.364Y72.174
X22.169Y72.109
X21.986Y72.019
X21.835Y71.944
X21.644Y71.845
X21.467Y71.720
X21.310Y71.573
X21.164Y71.417
X21.039Y71.240
X20.977Y71.121
G0Z5.080
G0X0.000Y66.676
G1Z-4.000F300.0
G1X21.507F1000.0
X21.414Y66.808
X21.314Y66.999
X21.239Y67.150
X21.140Y67.359
X21.071Y67.583
X21.037Y67.813
X20.993Y67.975
X20.966Y68.141
X20.957Y68.309
Y68.899
X0.000
Y71.121
X20.977
G0Z5.080
G0X0.000Y73.344
G1Z-4.000F300.0
G1X63.500F1000.0
Y75.566
X0.000
Y77.789
X63.500
Y80.011
X0.000
Y82.234
X63.500
Y84.456
X0.000
Y86.678
X63.500
Y88.842
X63.496Y88.896
X63.460Y88.899
X0.040
G0Z5.080
G0X30.886Y33.339
G1Z-4.000F300.0
G1X31.649F1000.0
G0Z5.080
G0X20.449Y11.114
G1Z-4.000F300.0
G1X20.788F1000.0
X20.841Y11.096
X21.036Y11.054
X21.234Y11.038
X21.473Y10.981
X21.718Y10.962
X22.319
X22.500Y10.973
X22.679Y11.004
X22.852Y11.055
X23.043Y11.095
X23.098Y11.114
X25.625
G0Z5.080
G0X6.594Y0.000
G1Z-4.000F300.0
G1X6.546Y0.218F1000.0
G2X6.453Y0.751I1.495J0.533
G1Y0.827
G2X6.577Y1.440I1.588J0.000
G2X6.875Y2.042I1.539J-0.388
G2X7.182Y2.437I1.391J-0.765
G1X7.193Y2.449
G2X7.483Y2.813I1.374J-0.796
G1X7.558Y2.888
X7.633Y2.963
X7.708Y3.038
X7.783Y3.113
X7.858Y3.188
X7.933Y3.264
X8.048Y3.374
X8.092Y3.423
X8.163Y3.565
X8.239Y3.715
X8.453Y4.071
X8.603Y4.297
X8.620Y4.325
X8.403Y4.470
G2X8.009Y4.777I0.765J1.391
G2X7.719Y5.141I1.084J1.159
G1X7.708Y5.153
X7.696Y5.164
X7.502Y5.297
X7.494Y5.301
X7.106Y5.458
G2X6.581Y5.829I0.634J1.455
G1X6.506Y5.904
X6.430Y5.980
X6.355Y6.055
G2X5.984Y6.580I1.084J1.159
G1X5.909Y6.731
X5.834Y6.881
X5.759Y7.031
X5.600Y7.428
G2X5.476Y8.041I1.464J0.613
G1Y8.492
G2X5.552Y8.974I1.588J0.000
G1Y9.018
G2X5.644Y9.551I1.588J0.000
G1X5.750Y9.932
X5.825Y10.157
X5.900Y10.383
X6.059Y10.779
G2X6.409Y11.284I1.455J-0.634
G1X6.453Y11.454
Y11.873
G2X6.577Y12.487I1.588J0.000
G2X7.032Y13.258I1.539J-0.388
G1X7.107Y13.333
G2X7.878Y13.788I1.159J-1.084
G2X8.492Y13.912I0.613J-1.464
G1X8.567
G2X9.180Y13.788I0.000J-1.588
G1X9.576Y13.629
G2X10.102Y13.258I-0.634J-1.455
G2X10.473Y12.733I-1.084J-1.159
G2X10.680Y11.949I-1.380J-0.784
G1Y11.044
X10.834Y10.935
G2X11.444Y10.339I-0.765J-1.391
G1X11.455Y10.328
X11.464Y10.319
X11.543Y10.281
X11.886Y10.181
G2X12.657Y9.726I-0.388J-1.539
G1X12.732Y9.651
X12.807Y9.576
G2X13.311Y8.417I-1.084J-1.159
G1Y7.909
X13.384Y8.199
X13.459Y8.499
X13.517Y8.749
Y9.243
X13.539Y9.506
X13.517Y9.769
Y10.264
G2X13.442Y10.746I1.512J0.483
G1Y11.798
X13.443Y11.836
X13.442Y11.873
Y12.142
X13.384Y12.392
X13.340Y12.538
G2X13.217Y13.118I1.464J0.613
G2X13.141Y13.602I1.512J0.484
G1Y13.645
G2X13.066Y14.128I1.512J0.483
G1Y14.246
X13.008Y14.496
X12.964Y14.642
X12.858Y15.022
X12.783Y15.323
X12.708Y15.623
X12.664Y15.769
X12.588Y15.994
X12.513Y16.220
X12.438Y16.445
X12.332Y16.826
X12.288Y16.971
X12.213Y17.197
X12.138Y17.422
G2X12.014Y18.036I1.464J0.613
G1Y18.411
G2X12.138Y19.025I1.588J0.000
G2X12.593Y19.796I1.539J-0.388
G2X13.364Y20.251I1.159J-1.084
G1X13.581Y20.324
X13.711Y20.389
X13.720Y20.397
X13.795Y20.472
X13.870Y20.548
X13.945Y20.623
G2X14.471Y20.994I1.159J-1.084
G1X14.621Y21.069
X14.772Y21.144
X14.922Y21.219
X15.309Y21.376
X15.448Y21.445
X15.598Y21.520
X15.748Y21.595
X15.890Y21.667
X15.899Y21.675
X15.974Y21.750
X16.049Y21.825
G2X16.444Y22.132I1.159J-1.084
G1X16.673Y22.284
Y22.437
X16.646Y22.532
X16.624Y22.590
X16.587Y22.651
X16.361Y22.951
X16.350Y22.963
X16.275Y23.038
X16.135Y23.187
G2X15.749Y23.489I0.773J1.386
G1X15.674Y23.564
X15.599Y23.639
X15.523Y23.714
G2X15.152Y24.240I1.084J1.159
G2X14.945Y25.024I1.380J0.784
G1Y25.400
G2X15.152Y26.184I1.588J0.000
G2X15.523Y26.710I1.455J-0.634
G2X16.049Y27.081I1.159J-1.084
G1X16.199Y27.156
G2X16.624Y27.322I0.784J-1.380
G2X16.523Y27.880I1.486J0.558
G1Y28.406
G2X16.730Y29.190I1.588J0.000
G2X17.037Y29.652I1.455J-0.634
G2X17.327Y30.016I1.374J-0.796
G1X17.402Y30.091
X17.413Y30.103
G2X17.703Y30.467I1.374J-0.796
G1X17.778Y30.542
X17.789Y30.554
X18.026Y30.867
Y31.262
G2X18.529Y32.421I1.588J0.000
G1X18.604Y32.496
X18.680Y32.571
X18.755Y32.646
X18.910Y32.792
X19.055Y32.947
X19.130Y33.022
X19.142Y33.034
G2X19.431Y33.398I1.374J-0.796
G2X19.826Y33.705I1.159J-1.084
G1X20.016Y33.835
X19.955Y34.021
X19.887Y34.160
X19.811Y34.310
X19.652Y34.706
X19.546Y35.087
X19.471Y35.387
G2X19.379Y35.921I1.495J0.533
G1Y36.296
G2X19.502Y36.910I1.588J0.000
G1X19.661Y37.306
G2X20.032Y37.832I1.455J-0.634
G1X20.107Y37.907
X20.183Y37.982
X20.258Y38.057
G2X20.783Y38.428I1.159J-1.084
G1X20.934Y38.503
G2X21.718Y38.711I0.784J-1.380
G1X22.093
G2X22.878Y38.503I0.000J-1.588
G1X23.028Y38.428
X23.178Y38.353
X23.328Y38.278
G2X23.854Y37.907I-0.634J-1.455
G1X23.921Y37.841
X24.165Y38.132
X24.241Y38.207
X24.316Y38.283
X24.391Y38.358
X24.402Y38.369
X24.535Y38.564
X24.637Y38.726
X24.682Y38.851
X24.612Y39.065
X24.539Y39.281
X24.471Y39.420
X24.395Y39.570
X24.261Y39.879
X24.159Y40.041
X23.945Y40.397
X23.869Y40.547
X23.710Y40.943
X23.637Y41.160
G2X23.437Y41.933I1.387J0.773
G1Y43.060
G2X23.560Y43.673I1.588J0.000
G1X23.719Y44.069
G2X24.090Y44.595I1.455J-0.634
G1X24.165Y44.670
X24.241Y44.745
G2X24.766Y45.116I1.159J-1.084
G2X25.550Y45.324I0.784J-1.380
G1X25.776
G2X26.389Y45.200I0.000J-1.588
G1X26.785Y45.041
X26.936Y44.966
G2X27.461Y44.595I-0.634J-1.455
G1X27.536Y44.520
X27.612Y44.445
X27.687Y44.370
G2X28.058Y43.844I-1.084J-1.159
G1X28.133Y43.694
X28.144Y43.674
X28.305Y43.429
X28.344Y43.399
X28.569Y43.249
G2X28.964Y42.942I-0.765J-1.391
G1X29.039Y42.867
X29.115Y42.791
X29.190Y42.716
G2X29.479Y42.352I-1.084J-1.159
G1X29.722Y42.021
G2X30.020Y41.419I-1.241J-0.990
G2X30.144Y40.815I-1.464J-0.613
G1X30.585
G2X31.082Y40.735I0.000J-1.588
G2X31.574Y40.616I-0.121J-1.583
G1X31.970Y40.457
X32.327Y40.243
G2X33.018Y39.485I-0.765J-1.391
G1X33.177Y39.089
X33.283Y38.709
G2X33.375Y38.175I-1.495J-0.533
G1Y37.574
G2X33.168Y36.790I-1.588J0.000
G2X32.541Y36.069I-1.455J0.634
G1X32.271Y35.738
X32.196Y35.663
X32.120Y35.588
X32.045Y35.513
X31.970Y35.438
X31.895Y35.362
G2X31.500Y35.056I-1.159J1.084
G1X31.306Y34.923
X30.974Y34.680
X30.618Y34.465
X30.468Y34.390
X30.317Y34.315
X30.209Y34.259
X30.242Y34.225
X30.317Y34.149
X30.392Y34.074
X30.467Y33.999
G2X30.922Y33.228I-1.084J-1.159
G1X31.021Y32.890
G2X31.399Y33.179I1.142J-1.103
G1X31.755Y33.393
X32.151Y33.552
G2X32.764Y33.676I0.613J-1.464
G1X33.215
G2X33.999Y33.469I0.000J-1.588
G2X34.525Y33.097I-0.634J-1.455
G1X34.600Y33.022
X34.675Y32.947
X34.751Y32.872
X34.826Y32.797
X34.901Y32.722
X34.976Y32.646
X35.051Y32.571
G2X35.506Y31.800I-1.084J-1.159
G2X35.630Y31.186I-1.464J-0.613
G1Y30.961
G2X35.429Y30.188I-1.588J0.000
G1X35.272Y29.801
X35.197Y29.651
X35.122Y29.501
G2X34.751Y28.975I-1.455J0.634
G1X34.675Y28.900
X34.600Y28.825
X34.525Y28.749
G2X34.130Y28.443I-1.159J1.084
G1X33.905Y28.292
X33.549Y28.078
G2X32.764Y27.870I-0.784J1.380
G1X31.788
X31.574Y27.885
X31.369Y27.777
G2X30.706Y27.575I-0.784J1.380
G1X30.331Y27.499
X29.955Y27.424
X29.691Y27.362
X29.687Y27.360
X29.791Y27.306
X29.942Y27.231
G2X30.401Y26.927I-0.634J-1.455
G1X30.749Y26.716
X30.974Y26.566
X30.994Y26.555
X31.132Y26.486
X31.520Y26.329
X31.876Y26.115
X32.207Y25.872
X32.402Y25.739
G2X32.797Y25.432I-0.765J-1.391
G2X33.104Y25.037I-1.084J-1.159
G1X33.318Y24.681
G2X33.525Y23.897I-1.380J-0.784
G1Y23.521
G2X33.022Y22.362I-1.588J0.000
G1X32.947Y22.287
X32.872Y22.212
G2X32.346Y21.840I-1.159J1.084
G2X31.683Y21.638I-0.784J1.380
G2X31.186Y21.558I-0.497J1.508
G1X30.660
G2X30.163Y21.638I0.000J1.588
G2X29.501Y21.840I0.121J1.583
G1X29.456Y21.861
G2X28.920Y21.982I0.077J1.586
G1X28.811Y22.014
X28.398Y22.101
X28.018Y22.207
X27.793Y22.283
X27.684Y22.314
X27.322Y22.385
X26.978
G2X26.495Y22.460I0.000J1.588
G1X26.377
G2X25.894Y22.535I0.000J1.588
G1X25.625
G2X25.143Y22.610I0.000J1.588
G1X24.949
X24.836Y22.614
X24.724Y22.610
X24.348
X24.273Y22.612
X24.271Y22.612
X24.123Y22.410
G2X24.282Y21.718I-1.428J-0.693
G1Y21.494
X24.605Y21.427
X24.724
G2X25.257Y21.334I0.000J-1.588
G1X25.638Y21.228
X25.732Y21.201
X25.819
G2X26.302Y21.276I0.483J-1.512
G1X26.571
G2X27.053Y21.351I0.483J-1.512
G1X27.279
G2X27.776Y21.272I0.000J-1.588
G1X28.188Y21.184
G2X28.728Y21.000I-0.233J-1.570
G1X29.115Y20.844
X29.265Y20.769
X29.415Y20.693
X29.566Y20.618
X29.716Y20.543
X29.866Y20.468
G2X30.392Y20.097I-0.634J-1.455
G1X30.467Y20.022
X30.542Y19.946
X30.617Y19.871
X30.693Y19.796
X30.704Y19.785
X30.899Y19.652
G2X31.294Y19.345I-0.765J-1.391
G1X31.369Y19.270
X31.480Y19.156
X31.594Y19.045
X31.670Y18.970
X31.745Y18.894
X31.820Y18.819
X31.895Y18.744
X31.970Y18.669
X32.045Y18.594
X32.120Y18.519
X32.129Y18.510
X32.271Y18.439
X32.421Y18.364
X32.572Y18.289
G2X33.097Y17.917I-0.634J-1.455
G1X33.172Y17.842
X33.248Y17.767
X33.256Y17.759
G2X33.707Y17.458I-0.642J-1.452
G2X34.225Y17.091I-0.642J-1.452
G1X34.300Y17.016
G2X34.671Y16.490I-1.084J-1.159
G2X34.878Y15.706I-1.380J-0.784
G1Y15.330
G2X34.375Y14.171I-1.588J0.000
G1X34.300Y14.096
X34.225Y14.020
G2X33.699Y13.649I-1.159J1.084
G1X33.549Y13.574
X33.161Y13.417
X32.777Y13.265
G2X32.196Y13.142I-0.613J1.464
G2X31.712Y13.066I-0.484J1.512
G1X31.368
G2X30.886Y12.991I-0.483J1.512
G1X30.767
G2X30.285Y12.916I-0.483J1.512
G1X30.241
X30.029Y12.864
X29.696Y12.739
X29.479Y12.666
X29.094Y12.513
X28.869Y12.438
X28.489Y12.332
G2X27.955Y12.240I-0.533J1.495
G1X27.611
X27.361Y12.182
G2X26.828Y12.089I-0.533J1.495
G1X25.926
G2X25.142Y12.297I0.000J1.588
G1X24.992Y12.372
X24.841Y12.447
X24.691Y12.522
X24.652Y12.540
X24.601Y12.442
G2X24.230Y11.916I-1.455J0.634
G1X24.155Y11.841
X24.080Y11.766
X24.004Y11.691
X23.929Y11.616
G2X23.404Y11.245I-1.159J1.084
G2X22.852Y11.055I-0.784J1.380
G2X22.319Y10.962I-0.533J1.495
G1X21.718
G2X21.234Y11.038I0.000J1.588
G2X20.654Y11.161I0.033J1.587
G1X20.269Y11.313
X20.132Y11.355
X19.842Y11.427
X19.806Y11.206
X19.914
G2X20.448Y11.114I0.000J-1.588
G1X20.748Y11.039
X21.129Y10.933
X21.223Y10.906
X21.267
G2X21.764Y10.826I0.000J-1.588
G1X22.140Y10.751
X22.501Y10.680
X22.770
G2X23.252Y10.605I0.000J-1.588
G1X23.674
G2X24.115Y10.738I0.674J-1.437
G1X24.261Y10.783
X24.486Y10.858
X24.867Y10.964
G2X25.367Y11.056I0.533J-1.495
G2X25.851Y11.131I0.484J-1.512
G1X26.871
G2X27.321Y11.206I0.483J-1.512
G2X27.805Y11.282I0.484J-1.512
G1X28.374
G2X28.857Y11.357I0.483J-1.512
G1X29.759
G2X30.372Y11.233I0.000J-1.588
G1X30.518Y11.189
X30.818Y11.114
X31.137Y11.032
X31.412Y11.056
X31.562
G2X32.175Y10.933I0.000J-1.588
G1X32.572Y10.774
G2X33.097Y10.403I-0.634J-1.455
G1X33.172Y10.328
X33.248Y10.252
X33.323Y10.177
G2X33.826Y9.018I-1.084J-1.159
G1Y8.266
G2X33.703Y7.653I-1.587J0.000
G1X33.658Y7.507
X33.597Y7.246
X33.600Y7.172
G2X33.676Y6.688I-1.512J-0.484
G1Y5.786
G2X33.469Y5.002I-1.588J0.000
G2X33.097Y4.477I-1.455J0.634
G1X33.022Y4.401
G2X32.497Y4.030I-1.159J1.084
G1X32.100Y3.871
G2X31.487Y3.748I-0.613J1.464
G1X31.412
G2X30.928Y3.823I0.000J1.588
G2X30.427Y3.915I0.033J1.587
G2X29.876Y4.105I0.233J1.570
G1X29.737Y4.174
X29.350Y4.331
X29.211Y4.400
X28.886Y4.523
X28.675Y4.575
X28.180
G2X27.567Y4.698I0.000J1.588
G1X27.342Y4.773
X27.204Y4.815
X27.074Y4.775
G2X26.302Y4.575I-0.773J1.387
G1X25.657
G2X25.175Y4.499I-0.483J1.512
G1X24.680
G2X24.198Y4.424I-0.483J1.512
G1X24.079
G2X23.596Y4.349I-0.483J1.512
G1X23.328
X23.078Y4.291
G2X22.544Y4.199I-0.533J1.495
G1X22.501
G2X22.018Y4.124I-0.483J1.512
G1X21.718
G2X21.235Y4.199I0.000J1.588
G1X21.192
G2X20.578Y4.322I0.000J1.588
G2X19.976Y4.621I0.388J1.539
G1X19.957Y4.631
G2X19.431Y5.003I0.634J1.455
G1X19.356Y5.078
X19.281Y5.153
X19.257Y5.176
X19.247Y5.176
Y4.885
G2X19.124Y4.271I-1.588J0.000
G1X19.049Y4.046
X18.974Y3.820
X18.815Y3.424
X18.740Y3.274
X18.671Y3.135
X18.598Y2.919
X18.670Y2.802
X18.819Y2.662
X18.894Y2.587
X18.970Y2.512
X19.045Y2.437
X19.120Y2.362
G2X19.491Y1.836I-1.084J-1.159
G1X19.650Y1.440
G2X19.773Y0.827I-1.464J-0.613
G1Y0.601
G2X19.655Y0.000I-1.588J0.000
G1X49.857
G2X49.739Y0.601I1.469J0.601
G1Y0.827
G2X49.946Y1.611I1.587J0.000
G2X50.317Y2.136I1.455J-0.634
G1X50.392Y2.212
G2X51.551Y2.715I1.159J-1.084
G1X51.604
X51.820Y2.963
X51.895Y3.038
X51.970Y3.113
X52.033Y3.177
X51.993Y3.532
Y3.575
G2X51.918Y4.058I1.512J0.483
G1Y4.960
G2X51.993Y5.442I1.588J0.000
G1Y5.636
G2X52.073Y6.133I1.588J0.000
G1X52.097Y6.312
X52.085Y6.380
X52.041Y6.526
X51.966Y6.751
X51.893Y6.968
X51.824Y7.106
X51.749Y7.257
X51.674Y7.407
X51.599Y7.557
X51.524Y7.708
X51.449Y7.858
X51.290Y8.254
G2X51.167Y8.835I1.464J0.613
G2X51.091Y9.318I1.512J0.484
G1Y9.844
G2X51.438Y10.834I1.588J0.000
G1X51.449Y10.854
X51.524Y11.004
X51.599Y11.155
X51.814Y11.511
X52.056Y11.842
X52.108Y11.925
X52.160Y12.106
X52.219Y12.358
G2X51.820Y12.668I0.760J1.394
G1X51.745Y12.743
X51.670Y12.818
X51.594Y12.893
X51.519Y12.968
X51.444Y13.043
X51.369Y13.119
X51.294Y13.194
X51.219Y13.269
X51.143Y13.344
G2X50.772Y13.870I1.084J1.159
G2X50.565Y14.654I1.380J0.784
G1Y14.697
G2X50.490Y15.180I1.512J0.483
G1Y15.781
G2X50.691Y16.554I1.587J0.000
G1X50.841Y16.929
X50.883Y17.066
X50.989Y17.446
X51.016Y17.541
Y17.960
G2X51.217Y18.733I1.588J0.000
G1X51.374Y19.120
G2X51.745Y19.646I1.455J-0.634
G1X51.820Y19.721
X51.895Y19.796
X51.970Y19.871
X52.045Y19.946
G2X53.205Y20.450I1.159J-1.084
G1X53.580
G2X54.194Y20.326I0.000J-1.588
G1X54.590Y20.167
X54.740Y20.092
G2X55.480Y19.432I-0.634J-1.455
G2X55.871Y18.724I-1.148J-1.096
G1X55.946Y18.499
X56.053Y18.118
X56.128Y17.818
G2X56.220Y17.317I-1.495J-0.533
G2X56.295Y16.833I-1.512J-0.484
G1Y15.819
X56.469Y15.734
X56.619Y15.658
X56.623Y15.657
X56.704Y15.738
G2X57.068Y16.028I1.159J-1.084
G1X57.080Y16.039
X57.155Y16.114
X57.230Y16.189
G2X57.756Y16.560I1.159J-1.084
G1X57.906Y16.635
X58.294Y16.792
G2X59.066Y16.993I0.773J-1.387
G1X59.893
G2X60.506Y16.870I0.000J-1.588
G2X61.108Y16.571I-0.388J-1.539
G2X61.735Y15.945I-0.765J-1.391
G2X62.082Y14.954I-1.241J-0.990
G1Y14.278
G2X61.958Y13.665I-1.587J0.000
G1X61.883Y13.439
X61.808Y13.214
X61.764Y13.068
X61.658Y12.688
X61.499Y12.292
X61.424Y12.141
X61.348Y11.991
X61.273Y11.841
X61.059Y11.484
G2X60.752Y11.090I-1.391J0.765
G1X60.677Y11.014
G2X60.282Y10.708I-1.159J1.084
G1X60.087Y10.575
X60.075Y10.564
G2X59.711Y10.274I-1.159J1.084
G1X59.700Y10.263
X59.625Y10.188
G2X59.261Y9.898I-1.159J1.084
G1X58.929Y9.656
X58.573Y9.441
G2X58.022Y9.251I-0.784J1.380
G1X58.001Y9.244
X57.960Y9.199
X57.924Y9.140
X57.967Y9.050
G2X58.174Y8.266I-1.380J-0.784
G1Y8.148
G2X58.249Y7.665I-1.512J-0.483
G1Y7.289
G2X58.042Y6.505I-1.588J0.000
G1X57.873Y6.209
Y6.194
X57.931Y5.944
G2X58.024Y5.411I-1.495J-0.533
G1Y4.960
G2X57.944Y4.463I-1.587J0.000
G1X57.869Y4.087
X57.794Y3.711
X57.723Y3.350
Y2.630
G2X57.648Y2.148I-1.588J0.000
G1Y2.104
G2X57.441Y1.320I-1.587J0.000
G2X57.070Y0.794I-1.455J0.634
G1X56.994Y0.719
X56.919Y0.644
G2X56.199Y0.203I-1.159J1.084
G1X56.099Y0.062
X56.088Y0.043
X56.069Y0.000
X63.442
X63.496Y0.004
X63.500Y0.058
Y88.842
X63.496Y88.896
X63.442Y88.900
X0.058
X0.004Y88.896
X0.000Y88.842
Y0.058
X0.004Y0.004
X0.058Y0.000
X6.594
G0Z5.080
G0X29.786Y49.415
G1Z-4.000F300.0
G1X29.572Y49.058F1000.0
G2X29.265Y48.664I-1.391J0.765
G1X29.254Y48.652
X29.121Y48.457
X28.970Y48.232
G2X28.664Y47.837I-1.391J0.765
G1X28.588Y47.762
G2X27.429Y47.259I-1.159J1.084
G1X27.053
G2X26.269Y47.466I0.000J1.588
G2X25.743Y47.837I0.634J1.455
G2X25.437Y48.232I1.084J1.159
G1X25.286Y48.457
G2X24.940Y49.447I1.241J0.990
G1Y50.049
G2X25.032Y50.582I1.588J0.000
G1X25.138Y50.962
X25.297Y51.359
G2X25.668Y51.884I1.455J-0.634
G1X25.743Y51.959
X25.819Y52.035
X25.894Y52.110
G2X26.665Y52.565I1.159J-1.084
G2X27.279Y52.688I0.613J-1.464
G1X27.654
G2X28.268Y52.565I0.000J-1.587
G1X28.664Y52.406
G2X29.190Y52.035I-0.634J-1.455
G1X29.265Y51.959
X29.340Y51.884
X29.415Y51.809
X29.490Y51.734
G2X29.993Y50.575I-1.084J-1.159
G1Y50.199
G2X29.786Y49.415I-1.588J0.000
G0Z5.080
G0X24.954Y68.113
G1Z-4.000F300.0
G1X24.866Y67.701F1000.0
G2X24.676Y67.150I-1.570J0.233
G1X24.601Y66.999
G2X24.230Y66.474I-1.455J0.634
G2X23.070Y65.970I-1.159J1.084
G1X22.845
G2X21.685Y66.474I0.000J1.587
G2X21.314Y66.999I1.084J1.159
G1X21.239Y67.150
G2X21.037Y67.813I1.380J0.784
G2X20.957Y68.309I1.508J0.497
G1Y69.138
G2X20.807Y69.812I1.437J0.674
G1Y70.414
G2X21.310Y71.573I1.588J0.000
G2X21.835Y71.944I1.159J-1.084
G1X21.986Y72.019
G2X22.770Y72.227I0.784J-1.380
G1X23.070
G2X24.230Y71.723I0.000J-1.587
G1X24.305Y71.648
G2X24.760Y70.877I-1.084J-1.159
G2X24.879Y70.385I-1.464J-0.613
G1X24.954Y70.009
G2X25.034Y69.512I-1.508J-0.497
G1Y68.610
G2X24.954Y68.113I-1.588J0.000
G0Z5.080
G0X5.853Y0.001
G1Z-5.000F300.0
G1X0.040F1000.0
X0.004Y0.004
X0.000Y0.058
Y2.224
X4.811
X4.809Y2.237
X4.800Y2.405
Y2.630
X4.814Y2.843
X4.858Y3.056
X4.931Y3.262
X5.032Y3.457
X5.158Y3.634
X5.303Y3.790
X5.378Y3.865
X5.454Y3.940
X5.625Y4.098
X5.818Y4.229
X6.002Y4.381
X6.113Y4.446
X0.000
Y6.669
X4.975
X4.933Y6.790
X4.892Y6.981
X4.817Y7.282
X4.766Y7.456
X4.735Y7.635
X4.725Y7.815
Y8.492
X4.735Y8.672
X4.766Y8.851
X4.778Y8.891
X0.000
Y11.114
X5.617
X5.675Y11.284
X5.719Y11.430
X5.794Y11.731
X5.869Y12.031
X5.910Y12.225
X5.975Y12.412
X6.042Y12.615
X6.134Y12.808
X6.210Y12.958
X6.294Y13.124
X6.397Y13.279
X6.445Y13.336
X0.000
Y15.559
G0Z5.080
G0X11.808Y11.114
G1Z-5.000F300.0
G1X13.066F1000.0
Y11.391
X13.010Y11.629
X12.991Y11.873
Y12.067
X12.945Y12.246
X12.921Y12.429
X12.858Y12.693
X12.800Y12.896
X12.770Y13.105
X12.713Y13.334
X12.713Y13.336
X11.099
G0Z5.080
G0X0.000Y15.559
G1Z-5.000F300.0
G1X12.207F1000.0
X12.148Y15.730
X12.107Y15.924
X12.031Y16.225
X11.987Y16.370
X11.922Y16.557
X11.881Y16.751
X11.837Y16.896
X11.762Y17.122
X11.689Y17.338
X11.620Y17.477
X11.529Y17.665
X11.491Y17.781
X0.000
Y20.004
X10.962
Y20.064
X10.975Y20.268
X11.015Y20.470
X11.080Y20.665
X11.169Y20.849
X11.279Y21.057
X11.421Y21.249
X11.591Y21.419
X11.783Y21.561
X11.991Y21.670
X12.175Y21.759
X12.370Y21.825
X12.572Y21.864
X12.775Y21.877
X12.850
X13.081Y21.861
X13.308Y21.810
X13.525Y21.727
X13.527
X13.707Y21.717
X13.886Y21.686
X14.060Y21.635
X14.254Y21.594
X14.441Y21.529
X14.472Y21.521
X14.621Y21.595
X14.785Y21.676
X14.957Y21.738
X15.134Y21.779
X15.381Y21.880
X15.512Y21.964
X15.523Y21.975
X15.599Y22.051
X15.674Y22.126
X15.749Y22.201
X15.760Y22.213
X15.769Y22.226
X0.000
Y24.449
X14.227
X14.162Y24.654
X14.126Y24.873
X14.026Y25.065
X13.952Y25.271
X13.908Y25.485
X13.893Y25.701
Y26.076
X13.906Y26.280
X13.946Y26.482
X14.009Y26.671
X0.000
Y28.894
X15.876
X15.884Y28.916
X15.968Y29.096
X15.829Y29.350
X15.739Y29.534
X15.674Y29.729
X15.634Y29.931
X15.621Y30.134
Y30.811
X15.640Y31.055
X15.655Y31.116
X0.000
Y33.339
X14.504
X14.494Y33.516
Y33.892
X14.498Y33.999
X14.454Y34.160
X14.428Y34.326
X14.419Y34.493
Y34.568
X14.433Y34.781
X14.477Y34.993
X14.550Y35.200
X14.651Y35.395
X14.769Y35.561
X0.000
Y37.784
G0Z5.080
G0X18.969Y35.561
G1Z-5.000F300.0
G1X17.783F1000.0
G0Z5.080
G0X0.000Y37.784
G1Z-5.000F300.0
G1X19.075F1000.0
X19.135Y37.907
X19.234Y38.098
X19.359Y38.275
X19.506Y38.433
X19.581Y38.508
X19.656Y38.583
X19.732Y38.658
X19.889Y38.805
X20.066Y38.930
X20.257Y39.029
X20.408Y39.105
X20.600Y39.198
X20.804Y39.264
X21.020Y39.336
X21.028Y39.341
X21.199Y39.460
X21.385Y39.555
X21.568Y39.645
X21.763Y39.710
X21.965Y39.750
X22.169Y39.763
X23.070
X23.274Y39.750
X23.476Y39.710
X23.671Y39.645
X23.855Y39.555
X23.960Y39.505
X23.938Y39.582
X23.873Y39.712
X23.865Y39.721
X23.707Y39.892
X23.629Y40.006
X0.000
Y42.229
X22.610
Y42.684
X22.620Y42.865
X22.651Y43.044
X22.702Y43.218
X22.760Y43.467
Y43.661
X22.761Y43.699
X22.760Y43.736
Y44.337
X22.766Y44.451
X0.000
Y46.674
X23.322
X23.344Y46.694
X23.521Y46.820
X23.716Y46.921
X23.923Y46.994
X24.135Y47.038
X24.348Y47.052
X24.388
X24.245Y47.311
X24.234Y47.330
X24.084Y47.555
X23.965Y47.727
X23.869Y47.912
X23.780Y48.095
X23.715Y48.290
X23.675Y48.492
X23.662Y48.696
Y48.896
X0.000
Y51.119
X24.387
X24.389Y51.122
X24.431Y51.258
X24.479Y51.476
X24.462Y51.539
X24.387Y51.765
X24.319Y51.963
X24.277Y52.169
X24.263Y52.378
Y52.829
X24.267Y52.942
X24.263Y53.054
Y53.341
X0.000
Y55.564
G0Z5.080
G0X23.662Y0.001
G1Z-5.000F300.0
G1X20.299F1000.0
X20.318Y0.043
X20.393Y0.193
X20.486Y0.386
X20.552Y0.589
X20.620Y0.787
X20.661Y0.993
X20.675Y1.202
Y1.804
X20.661Y2.013
X20.620Y2.219
X20.618Y2.224
G0Z5.080
G0X45.681Y0.001
G1Z-5.000F300.0
G1X27.664F1000.0
G0Z5.080
G0X20.618Y2.224
G1Z-5.000F300.0
G1X47.959F1000.0
X48.016Y2.248
X48.218Y2.305
X48.424Y2.334
X48.653Y2.391
X48.888Y2.414
X49.068Y2.460
X49.251Y2.485
X49.531Y2.550
X49.641Y2.662
X49.716Y2.738
X49.887Y2.896
X50.080Y3.027
X50.237Y3.159
X50.411Y3.270
X50.582Y3.389
X50.767Y3.484
X50.925Y3.563
X51.091Y3.623
X51.262Y3.665
X51.209Y3.842
X51.177Y4.024
X51.166Y4.208
Y4.446
X34.864
X34.901Y4.554
X34.940Y4.756
X34.953Y4.960
Y5.411
X34.935Y5.649
X34.880Y5.886
X34.789Y6.113
X34.666Y6.322
X34.514Y6.507
X34.411Y6.662
X34.406Y6.669
X51.131
X50.996Y6.813
X50.872Y6.990
X50.772Y7.182
X50.697Y7.332
X50.622Y7.482
X50.547Y7.632
X50.472Y7.783
X50.379Y7.975
X50.313Y8.179
X50.245Y8.377
X50.203Y8.583
X50.189Y8.792
Y8.891
X34.653
Y9.093
X34.639Y9.297
X34.600Y9.498
X34.535Y9.693
X34.445Y9.877
X34.346Y10.068
X34.221Y10.245
X34.074Y10.403
X33.999Y10.478
X33.828Y10.636
X33.635Y10.767
X33.477Y10.899
X33.304Y11.010
X33.155Y11.114
X50.340
X50.397Y11.230
X50.472Y11.380
X50.571Y11.571
X50.696Y11.748
X50.843Y11.906
X51.014Y12.064
X51.207Y12.195
X51.343Y12.311
X51.177Y12.425
X51.024Y12.560
X50.891Y12.714
X50.779Y12.881
X50.768Y12.893
X50.693Y12.968
X50.577Y13.089
X50.474Y13.221
X50.402Y13.336
X35.326
X35.442Y13.434
X35.584Y13.589
X35.703Y13.761
X35.798Y13.945
X35.891Y14.138
X35.957Y14.341
X36.032Y14.567
X36.097Y14.753
X36.138Y14.947
X36.189Y15.121
X36.220Y15.300
X36.231Y15.480
Y15.556
X36.230Y15.559
X49.889
X49.899Y15.736
X49.930Y15.915
X49.981Y16.089
X50.022Y16.280
X50.085Y16.465
X50.171Y16.640
X50.246Y16.791
X50.321Y16.941
X50.390Y17.080
X50.463Y17.296
X50.490Y17.391
Y17.781
X34.477
X34.289Y17.844
X34.106Y17.931
X33.913Y17.994
X33.774Y18.063
X33.624Y18.138
X33.604Y18.149
X33.379Y18.299
X33.184Y18.432
X33.026Y18.565
X32.853Y18.675
X32.682Y18.794
X32.497Y18.890
X32.346Y18.965
X32.204Y19.036
X32.196Y19.045
X32.120Y19.120
X32.045Y19.195
X31.970Y19.270
X31.895Y19.345
X31.775Y19.461
X31.642Y19.564
X31.500Y19.652
X31.275Y19.802
X31.049Y19.953
X30.974Y20.004
X51.063
X51.178Y20.183
X51.318Y20.348
X51.480Y20.492
X51.658Y20.612
X51.670Y20.623
X51.745Y20.698
X51.820Y20.773
X51.895Y20.848
X51.970Y20.923
X52.045Y20.999
X52.120Y21.074
X52.196Y21.149
X52.271Y21.224
X52.346Y21.299
X52.466Y21.415
X52.599Y21.518
X52.741Y21.606
X52.911Y21.725
X53.097Y21.821
X53.295Y21.892
X53.498Y21.935
X53.672Y21.986
X53.851Y22.017
X54.031Y22.028
X54.633
X54.844Y22.014
X55.054Y21.971
X55.258Y21.900
X55.449Y21.802
X55.623Y21.681
X55.797Y21.570
X55.957Y21.435
X56.099Y21.280
X56.219Y21.108
X56.313Y20.924
X56.403Y20.740
X56.468Y20.545
X56.508Y20.343
X56.521Y20.140
Y20.004
G0Z5.080
G0X59.486Y17.781
G1Z-5.000F300.0
G1X56.815F1000.0
G0Z5.080
G0X57.756Y0.001
G1Z-5.000F300.0
G1X63.460F1000.0
X63.496Y0.004
X63.500Y0.058
Y2.224
X58.850
Y2.405
X58.836Y2.614
X58.795Y2.820
X58.727Y3.018
X58.652Y3.244
X58.580Y3.460
X58.620Y3.711
X58.664Y3.874
X58.691Y4.040
X58.700Y4.208
Y4.446
X63.500
Y6.669
X60.677
X60.746Y6.864
X60.790Y7.077
X60.804Y7.289
Y7.515
X60.790Y7.727
X60.746Y7.940
X60.673Y8.147
X60.572Y8.341
X60.446Y8.519
X60.301Y8.674
X60.226Y8.749
X60.151Y8.825
X60.079Y8.891
X63.500
Y11.114
X61.601
X61.707Y11.225
X61.819Y11.375
X61.969Y11.487
X62.104Y11.616
X62.180Y11.691
X62.255Y11.766
X62.330Y11.841
X62.477Y11.999
X62.602Y12.176
X62.701Y12.367
X62.790Y12.550
X62.856Y12.745
X62.895Y12.947
X62.908Y13.151
Y13.336
X63.500
Y15.559
X63.201
X63.200Y15.573
X63.173Y15.740
X63.129Y15.902
X63.094Y16.132
X63.026Y16.355
X62.926Y16.565
X62.827Y16.756
X62.702Y16.933
X62.555Y17.091
X62.480Y17.166
X62.405Y17.241
X62.248Y17.388
X62.071Y17.513
X61.879Y17.612
X61.729Y17.687
X61.546Y17.777
X61.532Y17.781
X63.500
Y20.004
X56.521
G0Z5.080
G0X63.500Y22.226
G1Z-5.000F300.0
G1X35.428F1000.0
X35.436Y22.244
X35.502Y22.439
X35.541Y22.641
X35.554Y22.845
Y23.146
X35.544Y23.326
X35.513Y23.505
X35.462Y23.679
X35.387Y23.980
X35.346Y24.170
X35.283Y24.356
X35.237Y24.449
X63.500
Y26.671
X32.412
X32.313Y26.719
X32.118Y26.785
X31.916Y26.824
X31.712Y26.837
X31.519
X31.281Y26.893
X31.230Y26.924
X31.219Y26.935
X31.144Y27.010
X31.068Y27.086
X31.025Y27.130
X31.044Y27.136
X31.232Y27.176
X31.415Y27.239
X31.600Y27.205
X31.788Y27.194
X32.238
X32.483Y27.213
X32.721Y27.269
X32.764
X32.968Y27.282
X33.170Y27.322
X33.365Y27.387
X33.549Y27.476
X33.740Y27.576
X33.917Y27.701
X34.074Y27.848
X34.149Y27.923
X34.225Y27.998
X34.261Y28.033
X34.526Y28.153
X34.676Y28.228
X34.826Y28.303
X34.976Y28.378
X35.168Y28.477
X35.345Y28.602
X35.502Y28.749
X35.577Y28.825
X35.646Y28.894
X63.500
Y31.116
X36.456
Y31.412
X36.446Y31.593
X36.415Y31.772
X36.364Y31.945
X36.289Y32.246
X36.248Y32.437
X36.184Y32.622
X36.099Y32.797
X35.999Y32.988
X35.875Y33.165
X35.728Y33.323
X35.712Y33.339
X63.500
Y35.561
X33.522
X33.548Y35.588
X33.623Y35.663
X33.699Y35.738
X33.857Y35.909
X33.988Y36.102
X33.999Y36.114
X34.074Y36.189
X34.149Y36.264
X34.225Y36.339
X34.372Y36.497
X34.496Y36.674
X34.596Y36.865
X34.685Y37.049
X34.750Y37.244
X34.790Y37.446
X34.803Y37.649
Y37.784
X63.500
Y40.006
X34.550
X34.531Y40.062
X34.445Y40.237
X34.346Y40.428
X34.221Y40.605
X34.074Y40.762
X33.999Y40.838
X33.842Y40.985
X33.665Y41.109
X33.473Y41.209
X33.290Y41.298
X33.095Y41.363
X32.893Y41.403
X32.689Y41.416
X31.819
X31.725Y41.443
X31.538Y41.508
X31.344Y41.549
X31.261Y41.576
X31.166Y41.744
X31.051Y41.900
X30.918Y42.040
X30.843Y42.115
X30.832Y42.127
X30.764Y42.229
X63.500
Y44.451
X28.460
X28.450Y44.482
X28.358Y44.670
X28.283Y44.821
X28.208Y44.971
X28.133Y45.121
X28.085Y45.221
X28.213Y45.287
X28.404Y45.386
X28.581Y45.511
X28.739Y45.658
X28.751Y45.669
X28.917Y45.780
X29.070Y45.912
X29.205Y46.064
X29.319Y46.231
X29.411Y46.409
X29.486Y46.559
X29.541Y46.674
X63.500
Y48.896
X30.471
X30.508Y48.934
X30.611Y49.067
X30.699Y49.209
X30.820Y49.383
X30.917Y49.574
X30.989Y49.777
X31.031Y49.988
X31.045Y50.199
Y50.575
X31.031Y50.786
X30.989Y50.996
X30.946Y51.119
X63.500
Y53.341
X29.317
G0Z5.080
G0X0.000Y55.564
G1Z-5.000F300.0
G1X63.500F1000.0
Y57.786
X25.908
X25.908Y57.787
X26.078Y57.957
X26.220Y58.149
X26.329Y58.357
X26.415Y58.533
X26.479Y58.718
X26.519Y58.909
X26.570Y59.082
X26.601Y59.261
X26.612Y59.442
Y59.968
X26.609Y60.009
X63.500
Y62.231
G0Z5.080
G0X23.237Y57.786
G1Z-5.000F300.0
G1X0.000F1000.0
Y60.009
X22.460
G0Z5.080
G0X63.500Y62.231
G1Z-5.000F300.0
G1X0.000F1000.0
Y64.454
X20.858
X20.853Y64.464
X20.734Y64.635
X20.638Y64.820
X20.545Y65.013
X20.479Y65.216
X20.414Y65.404
X20.373Y65.599
X20.356Y65.797
X20.300Y66.036
X20.281Y66.280
Y66.474
X20.233Y66.676
X0.000
Y68.899
X20.206
X20.205Y68.911
Y68.922
X20.112Y69.103
X20.101Y69.123
X19.968Y69.318
X19.836Y69.475
X19.725Y69.649
X19.575Y69.874
X19.456Y70.045
X19.360Y70.231
X19.350Y70.250
X19.231Y70.421
X19.135Y70.606
X19.060Y70.757
X18.985Y70.907
X18.896Y71.091
X18.885Y71.121
X0.000
Y73.344
X19.290
X19.350Y73.433
X19.500Y73.658
X19.588Y73.800
X19.691Y73.933
X19.807Y74.053
X19.962Y74.198
X19.919Y74.408
X19.905Y74.622
Y74.998
X19.905Y75.016
X19.882Y75.041
X19.735Y75.198
X19.610Y75.375
X19.511Y75.566
X0.000Y75.566
Y77.789
X18.928
Y78.755
X18.942Y78.964
X18.983Y79.170
X19.051Y79.368
X19.126Y79.594
X19.201Y79.819
X19.246Y79.965
X19.256Y80.011
X0.000
Y82.234
X19.583
G0Z5.080
G0X25.710Y64.454
G1Z-5.000F300.0
G1X63.500F1000.0
Y66.676
X25.700
X25.719Y66.728
X25.759Y66.893
X25.781Y67.061
X25.838Y67.290
X25.860Y67.525
X25.916Y67.764
X25.935Y68.009
Y68.899
X63.500
Y71.121
X25.532
X25.521Y71.155
X25.428Y71.348
X25.328Y71.539
X25.204Y71.716
X25.057Y71.874
X24.981Y71.949
X24.906Y72.024
X24.831Y72.099
X24.820Y72.111
X24.689Y72.304
X24.530Y72.475
X24.455Y72.550
X24.300Y72.695
X24.155Y72.851
X24.146Y72.859
X24.063Y73.022
X23.961Y73.174
X23.843Y73.313
X23.822Y73.344
X63.500
Y75.566
X23.799
X23.788Y75.598
X23.699Y75.782
X23.607Y75.961
X23.493Y76.127
X23.572Y76.299
X23.631Y76.479
X23.699Y76.618
X23.771Y76.760
X23.779Y76.769
X23.854Y76.844
X23.970Y76.965
X24.073Y77.097
X24.161Y77.239
X24.282Y77.413
X24.379Y77.604
X24.444Y77.789
X63.500
Y80.011
X24.015
X24.151Y80.158
X24.276Y80.335
X24.376Y80.526
X24.465Y80.709
X24.530Y80.905
X24.570Y81.106
X24.583Y81.310
Y81.686
X24.569Y81.895
X24.528Y82.101
X24.482Y82.234
X63.500
Y84.456
X0.000
Y86.678
X63.500
Y88.842
X63.496Y88.896
X63.460Y88.899
X0.040
G0Z5.080
G0X5.853Y0.000
G1Z-5.000F300.0
G1X5.834Y0.043F1000.0
X5.759Y0.193
X5.684Y0.343
X5.673Y0.363
X5.522Y0.588
X5.372Y0.813
X5.222Y1.039
G2X4.880Y1.908I1.241J0.990
G2X4.800Y2.405I1.508J0.497
G1Y2.630
G2X5.303Y3.790I1.588J0.000
G1X5.378Y3.865
X5.454Y3.940
G2X5.818Y4.229I1.159J-1.084
G2X6.914Y4.669I1.096J-1.148
G1X7.289
X7.627Y4.632
X7.558Y4.702
X7.503Y4.756
G2X7.031Y4.932I0.313J1.556
G1X6.881Y5.007
X6.525Y5.222
X6.299Y5.372
X6.280Y5.383
X6.130Y5.458
X5.979Y5.533
G2X5.454Y5.904I0.634J1.455
G2X5.082Y6.430I1.084J1.159
G2X4.892Y6.981I1.380J0.784
G1X4.817Y7.282
G2X4.725Y7.815I1.495J0.533
G1Y8.492
G2X4.817Y9.025I1.588J0.000
G1X4.892Y9.326
G2X5.076Y9.866I1.570J-0.233
G1X5.233Y10.253
X5.308Y10.403
X5.383Y10.553
X5.452Y10.692
X5.602Y11.068
X5.675Y11.284
X5.719Y11.430
X5.794Y11.731
X5.869Y12.031
X5.975Y12.412
X6.134Y12.808
X6.210Y12.958
G2X6.517Y13.420I1.455J-0.634
G1X6.650Y13.615
G2X6.956Y14.010I1.391J-0.765
G1X7.032Y14.085
G2X7.557Y14.456I1.159J-1.084
G2X8.341Y14.663I0.784J-1.380
G1X8.943
G2X9.476Y14.571I0.000J-1.588
G2X10.027Y14.381I-0.233J-1.570
G2X10.553Y14.010I-0.634J-1.455
G1X10.628Y13.935
G2X10.918Y13.571I-1.084J-1.159
G1X11.160Y13.239
X11.375Y12.883
X11.534Y12.487
X11.609Y12.261
X11.715Y11.881
G2X11.808Y11.347I-1.495J-0.533
G1Y11.028
X11.830Y11.004
X11.906Y10.929
X11.981Y10.854
X12.168Y10.645
X12.207Y10.624
X12.357Y10.548
X12.507Y10.473
X12.657Y10.398
G2X13.066Y10.140I-0.634J-1.455
G1Y11.391
G2X12.991Y11.873I1.512J0.483
G1Y12.067
X12.921Y12.429
X12.858Y12.693
X12.770Y13.105
G2X12.691Y13.569I1.508J0.497
G2X12.615Y14.053I1.512J0.484
G1Y14.096
X12.557Y14.346
X12.482Y14.646
X12.438Y14.792
X12.363Y15.017
X12.257Y15.398
X12.213Y15.543
X12.107Y15.924
X12.031Y16.225
X11.987Y16.370
X11.881Y16.751
X11.837Y16.896
X11.762Y17.122
X11.689Y17.338
X11.620Y17.477
X11.464Y17.864
X11.395Y18.003
X11.320Y18.153
X11.161Y18.549
G2X11.037Y19.163I1.464J0.613
G1Y19.388
X11.038Y19.430
G2X10.962Y19.914I1.512J0.484
G1Y20.064
G2X11.169Y20.849I1.588J0.000
G2X11.991Y21.670I1.455J-0.634
G2X12.775Y21.877I0.784J-1.380
G1X12.850
G2X13.525Y21.727I0.000J-1.588
G1X13.527
G2X14.060Y21.635I0.000J-1.588
G1X14.441Y21.529
X14.472Y21.521
X14.621Y21.595
G2X15.134Y21.779I0.784J-1.380
G1X15.381Y21.880
X15.512Y21.964
X15.523Y21.975
X15.599Y22.051
X15.674Y22.126
X15.749Y22.201
X15.760Y22.213
G2X16.049Y22.577I1.374J-0.796
G1X16.054Y22.582
X16.049Y22.587
X15.974Y22.662
X15.899Y22.738
X15.887Y22.749
X15.693Y22.882
X15.467Y23.032
G2X15.072Y23.339I0.765J1.391
G1X14.997Y23.414
X14.922Y23.489
X14.847Y23.564
X14.772Y23.639
X14.697Y23.714
G2X14.326Y24.240I1.084J1.159
G2X14.126Y24.873I1.380J0.784
G2X13.893Y25.701I1.355J0.827
G1Y26.076
G2X14.100Y26.860I1.588J0.000
G2X14.471Y27.386I1.455J-0.634
G1X14.546Y27.461
G2X15.318Y27.916I1.159J-1.084
G2X15.762Y28.031I0.613J-1.464
G1X15.772Y28.062
Y28.331
G2X15.968Y29.096I1.588J0.000
G1X15.829Y29.350
G2X15.621Y30.134I1.380J0.784
G1Y30.811
G2X15.697Y31.294I1.588J0.000
G1X15.729Y31.580
X15.673Y31.610
G2X15.148Y31.981I0.634J1.455
G1X15.072Y32.056
G2X14.586Y32.982I1.084J1.159
G2X14.494Y33.516I1.495J0.533
G1Y33.892
X14.498Y33.999
G2X14.419Y34.493I1.509J0.494
G1Y34.568
G2X14.922Y35.728I1.588J0.000
G1X14.997Y35.803
G2X16.157Y36.306I1.159J-1.084
G1X16.232
G2X16.845Y36.183I0.000J-1.587
G2X17.653Y35.688I-0.388J-1.539
G1X17.767Y35.577
X17.842Y35.502
G2X18.213Y34.976I-1.084J-1.159
G2X18.418Y34.275I-1.380J-0.784
G1X18.486Y34.277
X18.862
X19.029Y34.268
X19.151Y34.304
X19.360Y34.375
X19.354Y34.397
X19.201Y34.781
X19.126Y35.007
X19.020Y35.387
G2X18.928Y35.921I1.495J0.533
G1Y36.597
X18.935Y36.747
X18.928Y36.898
Y37.123
G2X19.135Y37.907I1.588J0.000
G2X19.506Y38.433I1.455J-0.634
G1X19.581Y38.508
X19.656Y38.583
X19.732Y38.658
G2X20.257Y39.029I1.159J-1.084
G1X20.408Y39.105
X20.804Y39.264
X21.020Y39.336
X21.028Y39.341
X21.385Y39.555
G2X22.169Y39.763I0.784J-1.380
G1X23.070
G2X23.855Y39.555I0.000J-1.587
G1X23.960Y39.505
X23.938Y39.582
X23.873Y39.712
X23.865Y39.721
G2X23.575Y40.085I1.084J1.159
G2X23.272Y40.539I1.148J1.096
G1X23.032Y40.867
X22.817Y41.224
G2X22.610Y42.008I1.380J0.784
G1Y42.684
G2X22.702Y43.218I1.588J0.000
G1X22.760Y43.467
Y43.661
X22.761Y43.699
X22.760Y43.736
Y44.337
X22.769Y44.504
G2X22.685Y45.014I1.504J0.509
G1Y45.389
G2X23.188Y46.549I1.588J0.000
G2X24.348Y47.052I1.159J-1.084
G1X24.388
X24.245Y47.311
X24.234Y47.330
X24.084Y47.555
X23.869Y47.912
G2X23.662Y48.696I1.380J0.784
G1Y49.147
G2X23.785Y49.760I1.588J0.000
G1X23.938Y50.145
X24.095Y50.532
X24.170Y50.682
X24.245Y50.833
X24.320Y50.983
X24.389Y51.122
X24.431Y51.258
X24.479Y51.476
X24.462Y51.539
X24.387Y51.765
G2X24.263Y52.378I1.464J0.613
G1Y52.829
X24.267Y52.942
X24.263Y53.054
Y53.430
G2X24.471Y54.214I1.588J0.000
G2X24.842Y54.740I1.455J-0.634
G1X24.917Y54.815
X24.992Y54.890
G2X25.387Y55.197I1.159J-1.084
G2X26.377Y55.544I0.990J-1.241
G1X27.053
G2X27.667Y55.420I0.000J-1.587
G1X28.063Y55.261
G2X28.588Y54.890I-0.634J-1.455
G1X28.664Y54.815
X28.739Y54.740
G2X29.110Y54.214I-1.084J-1.159
G2X29.317Y53.430I-1.380J-0.784
G1Y52.908
G2X29.791Y52.561I-0.686J-1.432
G1X29.866Y52.486
X29.941Y52.410
X30.016Y52.335
X30.091Y52.260
X30.167Y52.185
X30.242Y52.110
X30.317Y52.035
X30.392Y51.959
G2X30.699Y51.565I-1.084J-1.159
G2X31.045Y50.575I-1.241J-0.990
G1Y50.199
G2X30.699Y49.209I-1.588J0.000
G2X30.392Y48.814I-1.391J0.765
G1X30.317Y48.739
X30.242Y48.664
X30.167Y48.588
X30.155Y48.577
G2X29.866Y48.213I-1.374J0.796
G1X29.791Y48.138
X29.716Y48.062
X29.693Y48.038
Y48.020
X29.686Y47.869
X29.693Y47.719
Y47.343
G2X29.486Y46.559I-1.588J0.000
G1X29.411Y46.409
G2X28.751Y45.669I-1.455J0.634
G1X28.739Y45.658
G2X28.213Y45.287I-1.159J1.084
G1X28.085Y45.221
X28.133Y45.121
X28.208Y44.971
X28.283Y44.821
X28.358Y44.670
X28.515Y44.283
X28.566Y44.183
X28.720Y44.075
X28.945Y43.925
X29.277Y43.682
G2X29.641Y43.393I-0.796J-1.374
G1X29.652Y43.381
G2X30.016Y43.092I-0.796J-1.374
G1X30.091Y43.017
X30.167Y42.942
X30.242Y42.867
X30.317Y42.791
G2X30.606Y42.427I-1.084J-1.159
G1X30.832Y42.127
X30.843Y42.115
X30.918Y42.040
G2X31.261Y41.576I-1.084J-1.159
G1X31.344Y41.549
X31.725Y41.443
X31.819Y41.416
X32.689
G2X33.473Y41.209I0.000J-1.587
G2X33.999Y40.838I-0.634J-1.455
G1X34.074Y40.762
G2X34.445Y40.237I-1.084J-1.159
G2X34.635Y39.686I-1.380J-0.784
G2X34.728Y39.152I-1.495J-0.533
G1Y38.583
G2X34.803Y38.100I-1.512J-0.483
G1Y37.649
G2X34.596Y36.865I-1.588J0.000
G2X34.225Y36.339I-1.455J0.634
G1X34.149Y36.264
X34.074Y36.189
X33.999Y36.114
X33.988Y36.102
G2X33.699Y35.738I-1.374J0.796
G1X33.623Y35.663
X33.548Y35.588
X33.473Y35.513
G2X32.947Y35.142I-1.159J1.084
G1X32.797Y35.066
X32.647Y34.991
X32.497Y34.916
X32.477Y34.905
X32.121Y34.691
X32.101Y34.680
X31.876Y34.529
X31.650Y34.379
X31.294Y34.165
X31.276Y34.155
X31.444Y33.999
X31.519Y33.924
X31.594Y33.849
X31.625Y33.819
X31.680Y33.844
X31.830Y33.919
X31.980Y33.995
G2X32.764Y34.202I0.784J-1.380
G1X33.817
G2X34.589Y34.001I0.000J-1.588
G1X34.976Y33.844
X35.127Y33.769
G2X35.652Y33.398I-0.634J-1.455
G1X35.728Y33.323
G2X36.099Y32.797I-1.084J-1.159
G2X36.289Y32.246I-1.380J-0.784
G1X36.364Y31.945
G2X36.456Y31.412I-1.495J-0.533
G1Y30.811
G2X36.333Y30.197I-1.588J0.000
G1X36.258Y29.972
X36.183Y29.746
G2X35.728Y28.975I-1.539J0.388
G1X35.652Y28.900
X35.577Y28.825
X35.502Y28.749
G2X34.976Y28.378I-1.159J1.084
G1X34.826Y28.303
X34.676Y28.228
X34.526Y28.153
X34.261Y28.033
X34.225Y27.998
X34.149Y27.923
X34.074Y27.848
G2X33.549Y27.476I-1.159J1.084
G2X32.764Y27.269I-0.784J1.380
G1X32.721
G2X32.238Y27.194I-0.483J1.512
G1X31.788
X31.415Y27.239
X31.044Y27.136
X31.025Y27.130
X31.068Y27.086
X31.144Y27.010
X31.219Y26.935
X31.230Y26.924
X31.281Y26.893
X31.519Y26.837
X31.712
G2X32.497Y26.630I0.000J-1.588
G1X32.853Y26.415
X33.078Y26.265
G2X33.640Y25.746I-0.765J-1.391
G2X34.075Y25.578I-0.349J-1.549
G1X34.225Y25.503
G2X34.751Y25.132I-0.634J-1.455
G1X34.826Y25.057
G2X35.197Y24.531I-1.084J-1.159
G2X35.387Y23.980I-1.380J-0.784
G1X35.462Y23.679
G2X35.554Y23.146I-1.495J-0.533
G1Y22.845
G2X35.347Y22.061I-1.588J0.000
G2X34.976Y21.535I-1.455J0.634
G1X34.901Y21.460
X34.826Y21.385
X34.751Y21.310
X34.675Y21.235
X34.600Y21.159
X34.525Y21.084
X34.450Y21.009
G2X33.924Y20.638I-1.159J1.084
G2X33.140Y20.431I-0.784J1.380
G1X32.840
G2X32.357Y20.506I0.000J1.588
G1X32.314
G2X31.700Y20.629I0.000J1.588
G1X31.316Y20.782
X31.230Y20.807
X30.961
G2X30.427Y20.899I0.000J1.588
G1X30.096Y20.985
X30.242Y20.848
X30.317Y20.773
X30.392Y20.698
X30.467Y20.623
G2X30.838Y20.097I-1.084J-1.159
G1X30.840Y20.094
X31.049Y19.953
X31.275Y19.802
X31.500Y19.652
G2X31.895Y19.345I-0.765J-1.391
G1X31.970Y19.270
X32.045Y19.195
X32.120Y19.120
X32.196Y19.045
X32.204Y19.036
X32.346Y18.965
X32.497Y18.890
X32.853Y18.675
X33.184Y18.432
X33.379Y18.299
X33.604Y18.149
X33.624Y18.138
X33.774Y18.063
X33.913Y17.994
X34.289Y17.844
G2X34.882Y17.548I-0.397J-1.537
G1X34.901Y17.537
G2X35.427Y17.166I-0.634J-1.455
G1X35.502Y17.091
X35.577Y17.016
X35.652Y16.941
G2X36.107Y16.169I-1.084J-1.159
G2X36.231Y15.556I-1.464J-0.613
G1Y15.480
G2X36.138Y14.947I-1.588J0.000
G1X36.032Y14.567
X35.957Y14.341
X35.798Y13.945
G2X35.107Y13.187I-1.455J0.634
G1X34.751Y12.973
X34.355Y12.814
G2X33.741Y12.691I-0.613J1.464
G1X33.247
G2X32.764Y12.615I-0.483J1.512
G1X32.496
G2X32.013Y12.540I-0.483J1.512
G1X30.993
G2X30.510Y12.465I-0.483J1.512
G1X30.467
X30.105Y12.395
X29.996Y12.363
X29.780Y12.290
X29.641Y12.221
X29.491Y12.146
X29.340Y12.071
X28.944Y11.912
X28.574Y11.808
X29.608
G2X30.222Y11.684I0.000J-1.588
G1X30.447Y11.609
X30.543Y11.582
G2X31.019Y11.498I-0.033J-1.587
G1X31.186Y11.507
X31.788
G2X32.285Y11.427I0.000J-1.588
G2X32.947Y11.225I-0.121J-1.583
G1X33.304Y11.010
X33.635Y10.767
G2X33.999Y10.478I-0.796J-1.374
G1X34.074Y10.403
G2X34.445Y9.877I-1.084J-1.159
G2X34.653Y9.093I-1.380J-0.784
G1Y8.642
G2X34.445Y7.858I-1.587J0.000
G1X34.370Y7.708
X34.156Y7.351
X34.151Y7.343
X34.102Y7.187
X34.145Y7.097
X34.220Y6.946
X34.291Y6.804
X34.514Y6.507
G2X34.953Y5.411I-1.148J-1.096
G1Y4.960
G2X34.746Y4.176I-1.588J0.000
G1X34.677Y4.037
X34.521Y3.650
G2X34.149Y3.124I-1.455J0.634
G2X33.755Y2.817I-1.159J1.084
G2X32.764Y2.470I-0.990J1.241
G1X32.389
G2X31.775Y2.594I0.000J1.588
G1X31.379Y2.753
X31.229Y2.828
X31.079Y2.903
X30.940Y2.972
G2X30.410Y3.220I0.397J1.537
G1X30.102Y3.354
X29.963Y3.423
X29.587Y3.573
X29.211Y3.723
X28.836Y3.874
X28.736Y3.903
X28.374Y3.973
X28.105
G2X27.572Y4.066I0.000J1.588
G1X27.271Y4.141
X27.091Y4.178
X26.910Y4.141
X26.498Y4.053
G2X26.001Y3.973I-0.497J1.508
G1X24.755
G2X24.273Y3.898I-0.483J1.512
G1X23.553
X23.192Y3.828
X22.816Y3.753
X22.552Y3.690
G2X22.018Y3.598I-0.533J1.495
G1X21.417
G2X20.920Y3.677I0.000J1.588
G2X20.331Y3.841I0.121J1.583
G2X20.525Y3.081I-1.394J-0.759
G1Y2.512
X20.552Y2.417
G2X20.675Y1.804I-1.464J-0.613
G1Y1.202
G2X20.552Y0.589I-1.588J0.000
G1X20.393Y0.193
X20.318Y0.043
X20.298Y0.000
X23.662
Y0.075
G2X23.869Y0.859I1.588J0.000
G2X24.241Y1.385I1.455J-0.634
G2X25.400Y1.888I1.159J-1.084
G1X25.851
G2X26.635Y1.681I0.000J-1.588
G2X27.161Y1.310I-0.634J-1.455
G2X27.664Y0.150I-1.084J-1.159
G1Y0.000
X45.681
Y0.075
G2X45.888Y0.859I1.588J0.000
G2X46.259Y1.385I1.455J-0.634
G2X46.654Y1.692I1.159J-1.084
G2X47.256Y1.990I0.990J-1.241
G1X47.481Y2.065
X47.824Y2.165
G2X48.424Y2.334I0.722J-1.414
G2X48.888Y2.414I0.497J-1.508
G1X49.251Y2.485
X49.531Y2.550
X49.641Y2.662
X49.716Y2.738
G2X50.080Y3.027I1.159J-1.084
G1X50.411Y3.270
X50.767Y3.484
G2X51.262Y3.665I0.784J-1.380
G2X51.166Y4.208I1.492J0.543
G1Y4.885
G2X51.242Y5.368I1.588J0.000
G2X51.415Y6.057I1.587J-0.033
G1X51.421Y6.087
X51.392Y6.355
X51.390Y6.363
X51.305Y6.494
X51.294Y6.506
X51.219Y6.581
X51.143Y6.656
G2X50.772Y7.182I1.084J1.159
G1X50.697Y7.332
X50.622Y7.482
X50.547Y7.632
X50.472Y7.783
X50.313Y8.179
G2X50.189Y8.792I1.464J0.613
G1Y9.061
G2X50.114Y9.544I1.512J0.483
G1Y9.694
G2X50.189Y10.177I1.587J0.000
G1Y10.446
G2X50.397Y11.230I1.587J0.000
G1X50.472Y11.380
G2X50.843Y11.906I1.455J-0.634
G2X51.207Y12.195I1.159J-1.084
G1X51.343Y12.311
G2X50.779Y12.881I0.809J1.366
G1X50.768Y12.893
X50.693Y12.968
G2X50.386Y13.363I1.084J1.159
G1X50.171Y13.719
X50.096Y13.870
G2X49.889Y14.654I1.380J0.784
G1Y15.556
G2X49.981Y16.089I1.588J0.000
G2X50.171Y16.640I1.570J-0.233
G1X50.246Y16.791
X50.321Y16.941
X50.390Y17.080
X50.463Y17.296
X50.490Y17.391
Y18.186
G2X50.565Y18.668I1.587J0.000
G1Y18.712
G2X50.772Y19.496I1.587J0.000
G1X50.847Y19.646
X51.062Y20.003
G2X51.658Y20.612I1.391J-0.765
G1X51.670Y20.623
X51.745Y20.698
X51.820Y20.773
X51.895Y20.848
X51.970Y20.923
X52.045Y20.999
X52.120Y21.074
X52.196Y21.149
X52.271Y21.224
X52.346Y21.299
G2X52.741Y21.606I1.159J-1.084
G2X53.498Y21.935I0.990J-1.241
G2X54.031Y22.028I0.533J-1.495
G1X54.633
G2X55.623Y21.681I0.000J-1.588
G2X56.313Y20.924I-0.765J-1.391
G2X56.521Y20.140I-1.380J-0.784
G1Y19.388
X56.476Y19.016
X56.579Y18.644
X56.623Y18.499
X56.729Y18.118
X56.804Y17.818
G2X56.896Y17.317I-1.495J-0.533
G2X56.972Y16.833I-1.512J-0.484
G1Y16.643
X57.099Y16.721
X57.456Y16.936
X57.606Y17.011
X57.756Y17.086
X57.906Y17.161
X58.303Y17.320
X58.519Y17.393
X58.658Y17.462
X58.808Y17.537
X59.204Y17.696
X59.585Y17.802
G2X60.118Y17.895I0.533J-1.495
G1X60.945
G2X61.729Y17.687I0.000J-1.588
G1X61.879Y17.612
G2X62.405Y17.241I-0.634J-1.455
G1X62.480Y17.166
X62.555Y17.091
G2X62.926Y16.565I-1.084J-1.159
G2X63.129Y15.902I-1.380J-0.784
G2X63.209Y15.405I-1.508J-0.497
G1Y14.954
G2X63.129Y14.458I-1.587J0.000
G1X63.041Y14.045
X62.935Y13.665
X62.908Y13.570
Y13.151
G2X62.701Y12.367I-1.587J0.000
G2X62.330Y11.841I-1.455J0.634
G1X62.255Y11.766
X62.180Y11.691
X62.104Y11.616
X61.819Y11.375
X61.578Y11.090
X61.503Y11.014
X61.428Y10.939
X61.353Y10.864
X61.278Y10.789
X61.203Y10.714
X61.128Y10.639
X61.052Y10.564
X60.977Y10.488
X60.902Y10.413
X60.827Y10.338
G2X60.432Y10.031I-1.159J1.084
G1X60.207Y9.881
X60.012Y9.748
X59.711Y9.523
X59.418Y9.301
X59.475Y9.271
X59.625Y9.196
G2X60.151Y8.825I-0.634J-1.455
G1X60.226Y8.749
X60.301Y8.674
G2X60.804Y7.515I-1.084J-1.159
G1Y7.289
G2X60.301Y6.130I-1.587J0.000
G1X60.226Y6.055
X60.151Y5.980
G2X59.625Y5.608I-1.159J1.084
G1X59.229Y5.449
X59.003Y5.374
X58.700Y5.282
Y4.208
G2X58.620Y3.711I-1.587J0.000
G1X58.580Y3.460
X58.652Y3.244
X58.727Y3.018
G2X58.850Y2.405I-1.464J-0.613
G1Y2.029
G2X58.643Y1.245I-1.587J0.000
G1X58.568Y1.095
X58.493Y0.944
X58.278Y0.588
G2X57.971Y0.193I-1.391J0.765
G1X57.754Y0.000
X63.442
X63.496Y0.004
X63.500Y0.058
Y88.842
X63.496Y88.896
X63.442Y88.900
X0.058
X0.004Y88.896
X0.000Y88.842
Y0.058
X0.004Y0.004
X0.058Y0.000
X5.853
G0Z5.080
G0X26.509Y11.563
G1Z-5.000F300.0
G1X26.076F1000.0
G2X25.463Y11.687I0.000J1.588
G1X25.430Y11.695
X25.428Y11.690
X25.332Y11.506
X25.400Y11.507
X26.270
X26.509Y11.563
G0Z5.080
G0X27.267Y11.649
G1Z-5.000F300.0
G1X27.429Y11.657F1000.0
X27.472
X27.711Y11.714
X27.536
X27.286Y11.656
X27.267Y11.649
G0Z5.080
G0X22.460Y59.818
G1Z-5.000F300.0
G1Y60.118F1000.0
G2X22.583Y60.732I1.588J0.000
